!!!!SEGMENT: pl-cz--iii-226--001_fleming-jan--missa-in-c-kyrie.krn
!!!cenid: 17xx:215
!!!COM: Fleming, Jan
!!!COM-rismid: pe30093579
!!!CDT: <1796->1796
!!!CNT:
!!!OPR: Missa in C
!!!OTL: Kyrie
!!!OMV: 001
!!!PDT:
!!!AGN: Sacred; Mass
!!!SMS-siglum: PL-CZ
!!!SMS-shelfmark: III-226
!!!SMS-shelfwork: 001-001 M
!!!NIFC-rismid:
!!!URL-scan: http://repozytorium.nifc.pl/skany/pl-cz-nut--iii-226
!!!ONB-nifc: UWAGA: części Mszy: Kyrie, Gloria, Credo, Sanctus, Agnus
!!!AIN: 1 bass 3 empty 2 fagot 2 violn 2 vox
!!!key:
**kern	**dynam	**kern	**text	**kern	**text	**text	**kern	**text	**text	**kern	**dynam	**kern	**dynam	**kern	**dynam	**kern	**dynam	**kern	**kern
*part10	*part9	*part9	*part9	*part8	*part8	*	*part7	*part7	*	*part6	*part6	*part5	*part5	*part4	*part4	*part3	*part3	*part2	*part1
*staff10	*	*staff9	*staff9	*staff8	*staff8	*	*staff7	*staff7	*	*staff6	*	*staff5	*	*staff4	*	*staff3	*	*	*
*Ibass	*	*Iempty	*	*Ivox	*	*	*Ivox	*	*	*Ivioln	*	*Ivioln	*	*Iempty	*	*Iempty	*	*Ifagot	*Ifagot
*I"Basso	*	*I"Baſso	*	*I"Canto secondo	*	*	*I"Canto Primo	*	*	*I"Violino Secondo	*	*I"Violino Primo.	*	*I"Cornu Secondo In C	*	*I"Cornu Primo In C	*	*I"Fagotto Secondo	*I"Fagotto Primo
*	*	*	*	*	*verse1	*verse2	*	*verse1	*verse2	*	*	*	*	*	*	*	*	*	*
*group5	*	*group4	*	*group4	*	*	*group4	*	*	*group3	*	*group3	*	*group2	*	*group2	*	*group1	*group1
*I'Bc	*	*I'B	*	*I'C II	*	*	*I'C	*	*	*I'Vn II	*	*I'Vn I	*	*I'Cor II	*	*I'Cor I	*	*	*
*clefF4	*	*clefF4	*	*clefC1	*	*	*clefC1	*	*	*clefG2	*	*clefG2	*	*clefG2	*	*clefG2	*	*	*
*k[]	*	*k[]	*	*k[]	*	*	*k[]	*	*	*k[]	*	*k[]	*	*k[]	*	*k[]	*	*	*
*C:	*	*C:	*	*C:	*	*	*C:	*	*	*C:	*	*C:	*	*C:	*	*C:	*	*	*
*M4/4	*	*M4/4	*	*M4/4	*	*	*M4/4	*	*	*M4/4	*	*M4/4	*	*M4/4	*	*M4/4	*	*	*
*met(c)	*	*met(c)	*	*met(c)	*	*	*met(c)	*	*	*met(c)	*	*met(c)	*	*met(c)	*	*met(c)	*	*	*
=1	=1	=1	=1	=1	=1	=1	=1	=1	=1	=1	=1	=1	=1	=1	=1	=1	=1	=1	=1
!LO:TX:a:B:t=ad:	!	!LO:TX:a:B:t=ad:	!	!LO:TX:a:B:t=ad:	!	!	!LO:TX:a:B:t=Adagio	!	!	!LO:TX:a:B:t=adagio	!	!LO:TX:a:B:t=ad:	!	!LO:TX:a:B:t=Tard.	!	!LO:TX:a:B:t=ad:	!	!	!
!	!	!	!	!	!	!	!	!	!	!	!	!	!	!	!	!LO:TX:a:t=problem:ogonki po prawej stronie	!	!	!
!	!	!	!	!	!	!	!	!	!	!	!	!	!	!	!	!	!	!LO:TX:a:t=Tacet	!LO:TX:a:t=Tacet
8.C/L	.	4.c\	Ky-	4.e/	Ky-	.	4.cc\	Ky-	.	8.cc\L	.	8.ee\L	.	8r	.	8.cc\L	.	1ryy	1ryy
.	.	.	.	.	.	.	.	.	.	.	.	.	.	8e/L	.	.	.	.	.
16C/K	.	.	.	.	.	.	.	.	.	16cc\K	.	16ee\K	.	.	.	16cc\Jk	.	.	.
8.C/	.	.	.	.	.	.	.	.	.	8.cc\	.	8.ee\	.	8e/	.	8.cc\L	.	.	.
.	.	8G\	-ri-	8e/	-rie	.	8cc\	-rie	.	.	.	.	.	8e/J	.	.	.	.	.
16C/Jk	.	.	.	.	.	.	.	.	.	16cc\Jk	.	16ee\Jk	.	.	.	16cc\Jk	.	.	.
16.c\LL	.	4C/	-e	4e/	.	.	4cc\	.	.	8.cc\L	.	8.ee\L	.	4e/	.	8.cc\L	.	.	.
32c\K	.	.	.	.	.	.	.	.	.	.	.	.	.	.	.	.	.	.	.
16.G\	.	.	.	.	.	.	.	.	.	.	.	.	.	.	.	.	.	.	.
.	.	.	.	.	.	.	.	.	.	16cc\K	.	16ee\K	.	.	.	16cc\Jk	.	.	.
32G\JJk	.	.	.	.	.	.	.	.	.	.	.	.	.	.	.	.	.	.	.
16.E\LL	.	4r	.	4r	.	.	4r	.	.	8.cc\	.	8.ee\	.	4r	.	8.cc\L	.	.	.
32E\K	.	.	.	.	.	.	.	.	.	.	.	.	.	.	.	.	.	.	.
16.C\	.	.	.	.	.	.	.	.	.	.	.	.	.	.	.	.	.	.	.
.	.	.	.	.	.	.	.	.	.	16cc\Jk	.	16ee\Jk	.	.	.	16cc\Jk	.	.	.
32C\JJk	.	.	.	.	.	.	.	.	.	.	.	.	.	.	.	.	.	.	.
=2	=2	=2	=2	=2	=2	=2	=2	=2	=2	=2	=2	=2	=2	=2	=2	=2	=2	=2	=2
4C/	.	8C\L	Ky-	4.a\	Ky-	.	4.cc\	Ky-	.	8cc\L	.	8ee\L	.	2r	.	2r	.	1ryy	1ryy
.	.	8E\J	.	.	.	.	.	.	.	16cc\L	.	16ee\L	.	.	.	.	.	.	.
.	.	.	.	.	.	.	.	.	.	16ee\JJ	.	16gg\JJ	.	.	.	.	.	.	.
.	.	.	.	.	.	.	.	.	.	.	.	8qqgg/	.	.	.	.	.	.	.
8D\L	.	8F#X\	.	.	.	.	.	.	.	8a\L	.	8ff#X\L	.	.	.	.	.	.	.
8F#X\J	.	8D\	-ri-	8a\	-rie	.	8cc\	-ri-	.	16a\L	.	16ff#\L	.	.	.	.	.	.	.
.	.	.	.	.	.	.	.	.	.	16cc\JJ	.	16aa\JJ	.	.	.	.	.	.	.
4G\	.	4G\	-e	4g\	.	.	4b\	-e	.	8b/L	.	8gg\L	.	4g/	.	4dd\	.	.	.
.	.	.	.	.	.	.	.	.	.	8b/J	.	8dd\J	.	.	.	.	.	.	.
4r	.	4r	.	4r	.	.	4r	.	.	(16cc/LL	.	(16dd\LL	.	4r	.	4r	.	.	.
.	.	.	.	.	.	.	.	.	.	16a/)	.	16cc\)	.	.	.	.	.	.	.
.	.	.	.	.	.	.	.	.	.	(16a/	.	(16cc\	.	.	.	.	.	.	.
.	.	.	.	.	.	.	.	.	.	16g/JJ)	.	16b\JJ)	.	.	.	.	.	.	.
=3	=3	=3	=3	=3	=3	=3	=3	=3	=3	=3	=3	=3	=3	=3	=3	=3	=3	=3	=3
!LO:TX:a:t=problem:mixed beam	!	!	!	!	!	!	!	!	!	!	!	!	!	!	!	!	!	!	!
8GG/L	.	8D/L	Ky-	4.f/	Ky-	.	4.b\	Ky-	.	16fn/LL	.	(16b/LL	.	0r	.	0r	.	1ryy	1ryy
.	.	.	.	.	.	.	.	.	.	16d/	.	16f/)	.	.	.	.	.	.	.
8G\	.	8BB/J	.	.	.	.	.	.	.	16f/	.	(16b/	.	.	.	.	.	.	.
.	.	.	.	.	.	.	.	.	.	16d/JJ	.	16f/JJ)	.	.	.	.	.	.	.
8F\	.	8FF/L	ri	.	.	.	.	.	.	16f/LL	.	(16b/LL	.	.	.	.	.	.	.
.	.	.	.	.	.	.	.	.	.	16d/	.	16f/)	.	.	.	.	.	.	.
8D\J	.	8BB/J	.	8f/	-rie	.	8b\	-rie	.	16f/	.	(16b/	.	.	.	.	.	.	.
.	.	.	.	.	.	.	.	.	.	16d/JJ	.	16f/JJ)	.	.	.	.	.	.	.
8E/L	.	4C/	e	4e/	.	.	4cc\	.	.	16e/LL	.	(16cc/LL	.	.	.	.	.	.	.
.	.	.	.	.	.	.	.	.	.	16c/	.	16e/)	.	.	.	.	.	.	.
8C/J	.	.	.	.	.	.	.	.	.	16e/	.	(16cc/	.	.	.	.	.	.	.
.	.	.	.	.	.	.	.	.	.	16c/JJ	.	16e/JJ)	.	.	.	.	.	.	.
8r	.	4r	.	4r	.	.	(16gg\LL	e	.	16e/LL	.	(16cc/LL	.	.	.	.	.	.	.
.	.	.	.	.	.	.	16ee\)	.	.	16c/	.	16e/)	.	.	.	.	.	.	.
8C/	.	.	.	.	.	.	(16dd\	.	.	16e/	.	(16cc/	.	.	.	.	.	.	.
.	.	.	.	.	.	.	16cc\JJ)	.	.	16c/JJ	.	16e/JJ)	.	.	.	.	.	.	.
=4	=4	=4	=4	=4	=4	=4	=4	=4	=4	=4	=4	=4	=4	=4	=4	=4	=4	=4	=4
.	.	.	.	8qqg/	.	.	8qqcc/	.	.	.	.	.	.	.	.	.	.	.	.
!LO:TX:a:t=problem:mixed beam	!	!	!	!	!	!	!	!	!	!	!	!	!	!	!	!	!	!	!
8GG/L	.	8D/L	Ky-	4.f/	Ky-	.	4.b\	Ky-	.	16f/LL	.	(16b/LL	.	.	.	.	.	1ryy	1ryy
.	.	.	.	.	.	.	.	.	.	16d/	.	16f/)	.	.	.	.	.	.	.
8G\	.	8BB/J	.	.	.	.	.	.	.	16f/	.	(16b/	.	.	.	.	.	.	.
.	.	.	.	.	.	.	.	.	.	16d/JJ	.	16f/JJ)	.	.	.	.	.	.	.
8F\	.	8GG/L	-ri-	.	.	.	.	.	.	16f/LL	.	(16b/LL	.	.	.	.	.	.	.
.	.	.	.	.	.	.	.	.	.	16d/	.	16f/)	.	.	.	.	.	.	.
8D\J	.	8BB/J	.	8f/	-rie	.	8b\	-rie-	.	16f/	.	(16b/	.	.	.	.	.	.	.
.	.	.	.	.	.	.	.	.	.	16d/JJ	.	16f/JJ)	.	.	.	.	.	.	.
!	!	!	!	!	!	!	!	!	!	!	!	!LO:LB:g=original	!	!	!	!	!	!	!
8E/L	.	4C/	-e	4e/	.	.	4cc\	-e	.	16e/LL	.	(16cc/LL	.	.	.	.	.	.	.
.	.	.	.	.	.	.	.	.	.	16c/	.	16e/)	.	.	.	.	.	.	.
8C/J	.	.	.	.	.	.	.	.	.	16e/	.	(16cc/	.	.	.	.	.	.	.
.	.	.	.	.	.	.	.	.	.	16c/JJ	.	16e/JJ)	.	.	.	.	.	.	.
8r	.	4r	.	4r	.	.	(16gg\LL	.	.	16e/LL	.	(16cc/LL	.	.	.	.	.	.	.
.	.	.	.	.	.	.	16ee\)	.	.	16c/	.	16e/)	.	.	.	.	.	.	.
8C/	.	.	.	.	.	.	(16dd\	.	.	16e/	.	(16cc/	.	.	.	.	.	.	.
.	.	.	.	.	.	.	16cc\JJ)	.	.	16c/JJ	.	16e/JJ)	.	.	.	.	.	.	.
=5	=5	=5	=5	=5	=5	=5	=5	=5	=5	=5	=5	=5	=5	=5	=5	=5	=5	=5	=5
8D\L	.	8D\	Ky-	8cc\	Ky-	.	8ff#X\	Ky-	.	16a\LL	.	(16d/LL 16a 16ff#X	.	4.dd\	.	4.dd\	.	1ryy	1ryy
.	.	.	.	.	.	.	.	.	.	16cc\	.	16aa/)	.	.	.	.	.	.	.
8A\	.	8A\	-ri-	8cc\	-rie	.	8ff#\	-rie	.	16a\	.	(16ff#/	.	.	.	.	.	.	.
.	.	.	.	.	.	.	.	.	.	16cc\JJ	.	16aa/JJ)	.	.	.	.	.	.	.
8F#X\	.	8F#X\	-e	8cc\	.	.	8ff#\	e-	.	16a\LL	.	16ff#\LL	.	.	.	.	.	.	.
.	.	.	.	.	.	.	.	.	.	16cc\	.	16aa\	.	.	.	.	.	.	.
8D\J	.	8D\	e-	8cc\	elei-	.	8ff#\	-lei-	.	16a\	.	16ff#\	.	8dd\	.	8dd\	.	.	.
.	.	.	.	.	.	.	.	.	.	16cc\JJ	.	16aa\JJ	.	.	.	.	.	.	.
4GG/	.	4G\	-leison	8b\	-ſon	.	16gg\LL	son	.	16b\LL	.	16gg\LL	.	4g/	.	4dd\	.	.	.
.	.	.	.	.	.	.	16dd\JJ	.	.	16dd\JJ	.	16bb\JJ	.	.	.	.	.	.	.
.	.	.	.	4b\	.	.	4dd\	.	.	4b\	.	4dd\	.	.	.	.	.	.	.
8r	.	8F#X\	.	.	.	.	.	.	.	.	.	.	.	8r	.	8r	.	.	.
8D\	.	8D\	e-	8a\	e-	.	8cc\	e-	.	8a/	.	8cc\	.	8dd\	.	8dd\	.	.	.
=6	=6	=6	=6	=6	=6	=6	=6	=6	=6	=6	=6	=6	=6	=6	=6	=6	=6	=6	=6
*	*	*	*	*	*	*	*	*	*	*Xtuplet	*	*Xtuplet	*	*	*	*	*	*	*
8G/L	.	8G\L	-lei-	8b\L	-lei-	.	16b\LL	-lei-	.	24g/LL	.	(24b\LL	.	4dd\	.	4dd\	.	1ryy	1ryy
.	.	.	.	.	.	.	.	.	.	24a/	.	24ff#X\	.	.	.	.	.	.	.
.	.	.	.	.	.	.	16gg\	.	.	.	.	.	.	.	.	.	.	.	.
.	.	.	.	.	.	.	.	.	.	24b/JJ	.	24gg\JJ)	.	.	.	.	.	.	.
8C/	.	8E\J	.	16cc\L	.	.	16ee\	.	.	24cc/LL	.	24ee\LL	.	.	.	.	.	.	.
.	.	.	.	.	.	.	.	.	.	24b/	.	24dd\	.	.	.	.	.	.	.
.	.	.	.	16a\JJ	.	.	16cc\JJ	.	.	.	.	.	.	.	.	.	.	.	.
.	.	.	.	.	.	.	.	.	.	24a/JJ	.	24cc\JJ	.	.	.	.	.	.	.
8D/	.	8C/L	.	8g\L	.	.	8b\L	.	.	8g/L	.	8b/L	.	4dd\	.	8dd\L	.	.	.
8DD/J	.	8D/J	.	8a\J	.	.	8a\J	.	.	8f#X/J	.	8a/J	.	.	.	8dd\J	.	.	.
!	!	!	!	!	!	!	!	!	!	!	!	!LO:TX:a:t=problem:mixed beam	!	!	!	!	!	!	!
4GG/	.	4GG/	-son	4b\	-son	.	4g\	-son	.	16g/LL	.	16g/LL	.	4g/	.	4dd\	.	.	.
.	.	.	.	.	.	.	.	.	.	16b/	.	16gg\	.	.	.	.	.	.	.
.	.	.	.	.	.	.	.	.	.	16a/	.	16ff#X\	.	.	.	.	.	.	.
.	.	.	.	.	.	.	.	.	.	16b/JJ	.	16gg\JJ	.	.	.	.	.	.	.
8r	.	4r	.	4r	.	.	4r	.	.	16a/LL	.	16ff#\LL	.	4r	.	4r	.	.	.
.	.	.	.	.	.	.	.	.	.	16b/	.	16gg\	.	.	.	.	.	.	.
8GG/	.	.	.	.	.	.	.	.	.	16a/	.	16ff#\	.	.	.	.	.	.	.
.	.	.	.	.	.	.	.	.	.	16b/JJ	.	16gg\JJ	.	.	.	.	.	.	.
=7	=7	=7	=7	=7	=7	=7	=7	=7	=7	=7	=7	=7	=7	=7	=7	=7	=7	=7	=7
!	!	!LO:LB:g=original	!	!LO:LB:g=original	!	!	!LO:LB:g=original	!	!	!LO:LB:g=original	!	!	!	!	!	!	!	!	!
.	.	.	.	.	.	.	8qqee/	.	.	.	.	.	.	.	.	.	.	.	.
8D\L	.	8D\	Ky-	8cc\	Ky-	.	8ff#X\	Ky-	.	16a\LL	.	(16d/LL 16a 16ff#X	.	4.dd\	.	4.dd\	.	1ryy	1ryy
.	.	.	.	.	.	.	.	.	.	16cc\	.	16aa/)	.	.	.	.	.	.	.
8A\	.	8A\	-rie	8cc\	-rie	.	8ff#\	-rie	.	16a\	.	(16ff#/	.	.	.	.	.	.	.
.	.	.	.	.	.	.	.	.	.	16cc\JJ	.	16aa/JJ)	.	.	.	.	.	.	.
8F#X\	.	8F#X\	.	8cc\	.	.	8ff#\	.	.	16a\LL	.	16ff#\LL	.	.	.	.	.	.	.
.	.	.	.	.	.	.	.	.	.	16cc\	.	16aa\	.	.	.	.	.	.	.
8D\J	.	8D\	elei-	8cc\	e-	.	8ff#\	e-	.	16a\	.	16ff#\	.	8dd\	.	8dd\	.	.	.
.	.	.	.	.	.	.	.	.	.	16cc\JJ	.	16aa\JJ	.	.	.	.	.	.	.
4GG/	.	4G\	-son	8b\	-lei-	.	16gg\LL	-lei-	.	16b\LL	.	(24gg\LL	.	4dd\	.	4dd\	.	.	.
.	.	.	.	.	.	.	.	.	.	.	.	24aa\	.	.	.	.	.	.	.
.	.	.	.	.	.	.	16dd\JJ	.	.	16dd\JJ	.	.	.	.	.	.	.	.	.
.	.	.	.	.	.	.	.	.	.	.	.	24bb\JJ)	.	.	.	.	.	.	.
.	.	.	.	4b\	-ſon	.	4dd\	-son	.	4b/	.	4dd\	.	.	.	.	.	.	.
8r	.	8F#\	.	.	.	.	.	.	.	.	.	.	.	8r	.	8r	.	.	.
8D\	.	8D\	e-	8a\	e-	.	8cc\	e-	.	8a/	.	8cc\	.	8dd\	.	8dd\	.	.	.
=8	=8	=8	=8	=8	=8	=8	=8	=8	=8	=8	=8	=8	=8	=8	=8	=8	=8	=8	=8
*	*	*	*	*Xtuplet	*	*	*Xtuplet	*	*	*	*	*	*	*2\right	*	*	*	*	*
!LO:LB:g=original	!	!	!	!	!	!	!	!	!	!	!	!	!	!	!	!	!	!	!
!LO:TX:a:t=problem:mixed beam	!	!	!	!	!	!	!	!	!	!	!	!LO:LB:g=original	!	!	!	!	!	!	!
8G\L	.	8G\L	-lei-	16g\LL	-lei-	.	24b\LL	-lei-	.	16g/LL	.	16b\LL	.	2dd\	.	4dd\	.	1ryy	1ryy
.	.	.	.	.	.	.	24ff#X\	.	.	.	.	.	.	.	.	.	.	.	.
.	.	.	.	16b\JJ	.	.	.	.	.	16b/JJ	.	16gg\JJ	.	.	.	.	.	.	.
.	.	.	.	.	.	.	24gg\JJ	.	.	.	.	.	.	.	.	.	.	.	.
8C\	.	8E\J	.	24cc\LL	.	.	24ee\LL	.	.	24cc/LL	.	(24ee\LL	.	.	.	.	.	.	.
.	.	.	.	24b\	.	.	24dd\	.	.	24b/	.	24dd\	.	.	.	.	.	.	.
.	.	.	.	24a\JJ	.	.	24cc\JJ	.	.	24a/JJ	.	24cc\JJ)	.	.	.	.	.	.	.
8D\	.	8C/L	.	8g\L	.	.	8b/L	.	.	8g/L	.	8b/L	.	.	.	4cc\	.	.	.
8DD/J	.	8D/J	.	8f#X\J	.	.	8a/J	.	.	16f#X/L	.	8a/J	.	.	.	.	.	.	.
.	.	.	.	.	.	.	.	.	.	16a/JJ	.	.	.	.	.	.	.	.	.
.	.	.	.	8qqf#/	.	.	.	.	.	.	.	.	.	.	.	.	.	.	.
!	!	!	!	!	!	!	!	!	!	!	!	!LO:TX:a:t=problem:mixed beam	!	!	!	!	!	!	!
4GG/	.	4GG/	-son	4g/	-son	.	4g\	-son	.	8.b\L	.	8.g/L	.	4g/	.	4dd\	.	.	.
.	.	.	.	.	.	.	.	.	.	16b\Jk	.	16gg\Jk	.	.	.	.	.	.	.
.	.	.	.	8qqb/	.	.	8qqdd/	.	.	.	.	.	.	.	.	.	.	.	.
8D\L	.	8D\	Ky-	8a\	Ky-	.	8cc\	Ky-	.	16b/LL	.	16dd\LL	.	4r	.	4r	.	.	.
.	.	.	.	.	.	.	.	.	.	16a/	.	16cc\	.	.	.	.	.	.	.
8F#X\J	.	8F#X\	-rie	8a\	-rie	.	8cc\	-rie	.	16a/	.	16cc\	.	.	.	.	.	.	.
.	.	.	.	.	.	.	.	.	.	16g/JJ	.	16b\JJ	.	.	.	.	.	.	.
=9	=9	=9	=9	=9	=9	=9	=9	=9	=9	=9	=9	=9	=9	=9	=9	=9	=9	=9	=9
.	.	.	.	8qqa/	.	.	.	.	.	.	.	.	.	.	.	.	.	.	.
4G\	.	4G\	.	4g\	.	.	4b\	.	.	8.g/L	.	8.b\L	.	1r	.	1r	.	1ryy	1ryy
.	.	.	.	.	.	.	.	.	.	16b/Jk	.	16gg\Jk	.	.	.	.	.	.	.
.	.	.	.	8qqb/	.	.	8qqdd/	.	.	.	.	.	.	.	.	.	.	.	.
!LO:TX:a:t=problem:mixed beam	!	!	!	!	!	!	!	!	!	!	!	!	!	!	!	!	!	!	!
8D\L	.	8D\	Ky-	8a\	Ky-	.	8cc\	Ky-	.	16b/LL	.	16dd\LL	.	.	.	.	.	.	.
.	.	.	.	.	.	.	.	.	.	16a/	.	16cc\	.	.	.	.	.	.	.
8DD/J	.	8F#X\	-rie	8a\	-rie	.	8cc\	-rie	.	16a/	.	16cc\	.	.	.	.	.	.	.
.	.	.	.	.	.	.	.	.	.	16g/JJ	.	16b\JJ	.	.	.	.	.	.	.
4GG/	.	4G\	.	4g\	.	.	4b\	.	.	16g/LL	.	16b\LL	.	.	.	.	.	.	.
.	.	.	.	.	.	.	.	.	.	16g/	.	16b\	.	.	.	.	.	.	.
.	.	.	.	.	.	.	.	.	.	16g/	.	16b\	.	.	.	.	.	.	.
.	.	.	.	.	.	.	.	.	.	16g/JJ	.	16b\JJ	.	.	.	.	.	.	.
!LO:TX:a:t=problem:mixed beam	!	!	!	!	!	!	!	!	!	!	!	!	!	!	!	!	!	!	!
8C/L	.	4G\	e-	4b\	e-	.	4gg\	e-	.	16b\LL	.	16gg\LL	.	.	.	.	.	.	.
.	.	.	.	.	.	.	.	.	.	16b\	.	16gg\	.	.	.	.	.	.	.
8c\J	.	.	.	.	.	.	.	.	.	16b\	.	16gg\	.	.	.	.	.	.	.
.	.	.	.	.	.	.	.	.	.	16b\JJ	.	16gg\JJ	.	.	.	.	.	.	.
=10	=10	=10	=10	=10	=10	=10	=10	=10	=10	=10	=10	=10	=10	=10	=10	=10	=10	=10	=10
.	.	.	.	.	.	.	8qqff/	.	.	.	.	.	.	.	.	.	.	.	.
*	*	*2\right	*	*2\right	*	*	*2\right	*	*	*	*	*	*	*	*	*	*	*	*
8c\L	.	2c\	-lei-	2cc\	-lei-	.	2ee\	-lei-	.	16cc\LL	.	16ee\LL	.	8r	.	8r	.	1ryy	1ryy
.	.	.	.	.	.	.	.	.	.	16cc\	.	16ee\	.	.	.	.	.	.	.
8c\	.	.	.	.	.	.	.	.	.	16cc\	.	16ee\	.	8cc\L	.	8ee\L	.	.	.
.	.	.	.	.	.	.	.	.	.	16cc\JJ	.	16ee\JJ	.	.	.	.	.	.	.
8c\	.	.	.	.	.	.	.	.	.	16cc\LL	.	16ee\LL	.	8cc\	.	8ee\	.	.	.
.	.	.	.	.	.	.	.	.	.	16cc\	.	16ee\	.	.	.	.	.	.	.
8c\J	.	.	.	.	.	.	.	.	.	16cc\	.	16ee\	.	8cc\J	.	8ee\J	.	.	.
.	.	.	.	.	.	.	.	.	.	16cc\JJ	.	16ee\JJ	.	.	.	.	.	.	.
.	.	.	.	.	.	.	8qqdd/	.	.	.	.	.	.	.	.	.	.	.	.
*	*	*	*	*	*	*	*	*	*	*^	*	*^	*	*	*	*	*	*	*
!LO:TX:a:t=problem:mixed beam	!	!	!	!	!	!	!	!	!	!	!	!	!	!	!	!	!	!	!	!	!
8d\L	.	4.d\	.	2a\	.	.	2cc\	.	.	16a/LL	16f#X\LL	.	16ff#X/LL	16cc\LL	.	8r	.	8r	.	.	.
.	.	.	.	.	.	.	.	.	.	16a/	16f#\	.	16ff#/	16cc\	.	.	.	.	.	.	.
8D/	.	.	.	.	.	.	.	.	.	16a/	16f#\	.	16ff#/	16cc\	.	8cc\L	.	8cc\L	.	.	.
.	.	.	.	.	.	.	.	.	.	16a/JJ	16f#\JJ	.	16ff#/JJ	16cc\JJ	.	.	.	.	.	.	.
8D/	.	.	.	.	.	.	.	.	.	16a/LL	16f#\LL	.	16ff#/LL	16cc\LL	.	8cc\	.	8cc\	.	.	.
.	.	.	.	.	.	.	.	.	.	16a/	16f#\	.	16ff#/	16cc\	.	.	.	.	.	.	.
8D/J	.	8D\	.	.	.	.	.	.	.	16a/	16f#\	.	16ff#/	16cc\	.	8cc\J	.	8cc\J	.	.	.
.	.	.	.	.	.	.	.	.	.	16a/JJ	16f#\JJ	.	16ff#/JJ	16cc\JJ	.	.	.	.	.	.	.
*	*	*	*	*	*	*	*	*	*	*v	*v	*	*	*	*	*	*	*	*	*	*
*	*	*	*	*	*	*	*	*	*	*	*	*v	*v	*	*	*	*	*	*	*
=11	=11	=11	=11	=11	=11	=11	=11	=11	=11	=11	=11	=11	=11	=11	=11	=11	=11	=11	=11
4GG/	.	4.G\	-son	4.g\	.	.	4.b\	-son	.	16g/LL	.	16gg\LL	.	4g/	.	4dd\	.	1ryy	1ryy
.	.	.	.	.	.	.	.	.	.	16b/	.	16gg\	.	.	.	.	.	.	.
.	.	.	.	.	.	.	.	.	.	16a/	.	16ff#X\	.	.	.	.	.	.	.
.	.	.	.	.	.	.	.	.	.	16b/JJ	.	16gg\JJ	.	.	.	.	.	.	.
8r	.	.	.	.	.	.	.	.	.	16a/LL	.	16ff#\LL	.	4r	.	4r	.	.	.
.	.	.	.	.	.	.	.	.	.	16b/	.	16gg\	.	.	.	.	.	.	.
8G\	.	8G\	e-	8g\	.	.	8b\	e-	.	16a/	.	16ff#\	.	.	.	.	.	.	.
.	.	.	.	.	.	.	.	.	.	16b/JJ	.	16gg\JJ	.	.	.	.	.	.	.
!	!	!	!	!	!	!	!	!	!	!	!	!	!	!	!	!LO:TX:a:t=problem:porwana kartka w źródle, prawdopodobny dźwięk	!	!	!
.	.	.	.	8qqg/	.	.	.	.	.	.	.	.	.	.	.	.	.	.	.
*	*	*	*	*	*	*	*	*	*	*^	*	*	*	*	*	*	*	*	*
!	!	!	!	!	!	!	!	!	!	!	!	!	!LO:LB:g=original	!	!	!	!	!	!	!
8D\L	.	4.D\	-lei-	4.f#X\	.	.	4.a\	-lei-	.	16a/LL	16f#X\LL	.	16cc\LL	.	4.dd\	.	4.dd\	.	.	.
.	.	.	.	.	.	.	.	.	.	16a/	16f#\	.	16cc\	.	.	.	.	.	.	.
8E\	.	.	.	.	.	.	.	.	.	16a/	16f#\	.	16cc\	.	.	.	.	.	.	.
.	.	.	.	.	.	.	.	.	.	16a/JJ	16f#\JJ	.	16cc\JJ	.	.	.	.	.	.	.
8F#X\	.	.	.	.	.	.	.	.	.	16a/LL	16f#\LL	.	16cc\LL	.	.	.	.	.	.	.
.	.	.	.	.	.	.	.	.	.	16a/	16f#\	.	16cc\	.	.	.	.	.	.	.
!	!	!	!	!	!	!	!	!	!	!	!	!	!	!	!	!	!LO:TX:a:t=problem:porwana kartka w źródle, prawdopodobny dźwięk	!	!	!
8D\J	.	8F#X\	.	8d/	.	.	8cc\	.	.	16a/	16f#\	.	16cc\	.	8dd\	.	8dd\	.	.	.
.	.	.	.	.	.	.	.	.	.	16a/JJ	16f#\JJ	.	16cc\JJ	.	.	.	.	.	.	.
*	*	*	*	*	*	*	*	*	*	*v	*v	*	*	*	*	*	*	*	*	*
=12	=12	=12	=12	=12	=12	=12	=12	=12	=12	=12	=12	=12	=12	=12	=12	=12	=12	=12	=12
!LO:TX:a:t=problem:mixed beam	!	!	!	!LO:LB:g=original	!	!	!	!	!	!	!	!	!	!	!	!LO:LB:g=original	!	!	!
8G\L	.	4G\	-son	4g\	-son	.	4b\	-son	.	16g/LL	.	16b\LL	.	4dd\	.	4dd\	.	1ryy	1ryy
.	.	.	.	.	.	.	.	.	.	16b/	.	16gg\	.	.	.	.	.	.	.
8GG/J	.	.	.	.	.	.	.	.	.	16a/	.	16ff#X\	.	.	.	.	.	.	.
.	.	.	.	.	.	.	.	.	.	16b/JJ	.	16gg\JJ	.	.	.	.	.	.	.
8r	.	8r	.	8r	.	.	8r	.	.	16a/LL	.	16ff#\LL	.	8r	.	8r	.	.	.
.	.	.	.	.	.	.	.	.	.	16b/	.	16gg\	.	.	.	.	.	.	.
8G\	.	8G\	e-	8b\	elei-	.	8dd\	e-	.	16a/	.	16gg\	.	8dd\	.	8dd\L	.	.	.
.	.	.	.	.	.	.	.	.	.	16b/JJ	.	16dd\JJ	.	.	.	.	.	.	.
!	!	!	!	!	!	!	!LO:LB:g=original	!	!	!	!	!	!	!	!	!	!	!	!
.	.	.	.	8qqb/	.	.	8qqdd/	.	.	8qqb	.	8qqdd/	.	.	.	.	.	.	.
8D/L	.	8D\	-lei-	8a\	-ſon	.	8cc\	-lei-	.	16a/LL	.	16cc\LL	.	8dd\L	.	8dd\	.	.	.
.	.	.	.	.	.	.	.	.	.	16g/	.	16b\	.	.	.	.	.	.	.
8GG/J	.	8G\	-son	8g\	.	.	8b\	-ſon	.	16g/	.	16b\	.	8dd\J	.	8dd\J	.	.	.
.	.	.	.	.	.	.	.	.	.	16g/JJ	.	16b\JJ	.	.	.	.	.	.	.
8r	.	8r	.	8r	.	.	8r	.	.	16g/LL	.	16b\LL	.	8r	.	8r	.	.	.
.	.	.	.	.	.	.	.	.	.	16b/	.	16dd\	.	.	.	.	.	.	.
8G\	.	8G\	e-	8b\	e-	.	8dd\	e-	.	16b/	.	16gg\	.	8dd\	.	8dd\	.	.	.
.	.	.	.	.	.	.	.	.	.	16b/JJ	.	16dd\JJ	.	.	.	.	.	.	.
=13	=13	=13	=13	=13	=13	=13	=13	=13	=13	=13	=13	=13	=13	=13	=13	=13	=13	=13	=13
!	!	!LO:LB:g=original	!	!	!	!	!	!	!	!LO:LB:g=original	!	!	!	!	!	!	!	!	!
.	.	.	.	8qqb/	.	.	8qqdd/	.	.	8qqb/	.	8qqdd/	.	.	.	.	.	.	.
8D/L	.	8D\	-lei-	8a\	-lei-	.	8cc\	-lei-	.	16a/LL	.	16cc\LL	.	8dd\L	.	8dd\L	.	1ryy	1ryy
.	.	.	.	.	.	.	.	.	.	16g/	.	16b\	.	.	.	.	.	.	.
8GG/J	.	8G\	-son	8g\	-son	.	8b\	-ſon	.	16g/	.	16b\	.	8dd\J	.	8dd\J	.	.	.
.	.	.	.	.	.	.	.	.	.	16g/JJ	.	16b\JJ	.	.	.	.	.	.	.
8r	.	8r	.	8r	.	.	8r	.	.	8g/L	.	8b/L	.	4r	.	4r	.	.	.
8GG/	.	8G\	e-	8b\	e-	.	8g/	e-	.	8B/J	.	8g/J	.	.	.	.	.	.	.
.	.	.	.	.	.	.	8qqg/	.	.	.	.	.	.	.	.	.	.	.	.
8D/L	.	4D/	-lei-	4.a\	-lei-	.	4.f#X/	-lei-	.	16A/LL	.	16f#X/LL	.	2r	.	2r	.	.	.
.	.	.	.	.	.	.	.	.	.	16c/	.	16a/	.	.	.	.	.	.	.
8D/	.	.	.	.	.	.	.	.	.	16A/	.	16f#/	.	.	.	.	.	.	.
.	.	.	.	.	.	.	.	.	.	16c/JJ	.	16a/JJ	.	.	.	.	.	.	.
8C/	.	4C/	.	.	.	.	.	.	.	16A/LL	.	16f#/LL	.	.	.	.	.	.	.
.	.	.	.	.	.	.	.	.	.	16c/	.	16a/	.	.	.	.	.	.	.
8C/J	.	.	.	16a\LL	.	.	8f#/	.	.	16A/	.	16f#/	.	.	.	.	.	.	.
.	.	.	.	16cc\JJ	.	.	.	.	.	16c/JJ	.	16a/JJ	.	.	.	.	.	.	.
=14	=14	=14	=14	=14	=14	=14	=14	=14	=14	=14	=14	=14	=14	=14	=14	=14	=14	=14	=14
!	!	!	!	!	!	!	!	!	!	!	!	!	!	!LO:LB:g=original	!	!	!	!	!
16BB/LL	.	4BB/	-son	4b\	-son	.	4g\	-son	.	16B/LL	.	16g/LL	.	4g/	.	4dd\	.	1ryy	1ryy
16GG/	.	.	.	.	.	.	.	.	.	16B/	.	16g/	.	.	.	.	.	.	.
16GG/	.	.	.	.	.	.	.	.	.	16B/	.	16g/	.	.	.	.	.	.	.
16GG/JJ	.	.	.	.	.	.	.	.	.	16B/JJ	.	16g/JJ	.	.	.	.	.	.	.
8GG/	.	8r	.	8r	.	.	16dd\LL	e-	.	16b/LL	.	16dd\LL	.	4r	.	4r	.	.	.
.	.	.	.	.	.	.	16b\	.	.	16d/	.	16b\	.	.	.	.	.	.	.
8r	.	8G\	e-	8b\	e-	.	16a\	.	.	16c/	.	16a\	.	.	.	.	.	.	.
.	.	.	.	.	.	.	16g\JJ	.	.	16B/JJ	.	16g\JJ	.	.	.	.	.	.	.
.	.	.	.	8qqb/	.	.	8qqg/	.	.	.	.	.	.	.	.	.	.	.	.
16r	.	4.D\	-lei-	4.a\	-lei-	.	4.f#X/	-lei-	.	16A/LL	.	16f#X/LL	.	8r	.	8r	.	.	.
16D/LL	.	.	.	.	.	.	.	.	.	16c/	.	16a/	.	.	.	.	.	.	.
16D/	.	.	.	.	.	.	.	.	.	16A/	.	16f#/	.	8dd\	.	8dd\	.	.	.
16D/JJ	.	.	.	.	.	.	.	.	.	16c/JJ	.	16a/JJ	.	.	.	.	.	.	.
4r	.	.	.	.	.	.	.	.	.	16A/LL	.	16f#/LL	.	4dd\	.	4dd\	.	.	.
.	.	.	.	.	.	.	.	.	.	16c/	.	16a/	.	.	.	.	.	.	.
.	.	8F#X\	.	16a\LL	.	.	8f#/	.	.	16A/	.	16f#/	.	.	.	.	.	.	.
.	.	.	.	16cc\JJ	.	.	.	.	.	16c/JJ	.	16a/JJ	.	.	.	.	.	.	.
=15	=15	=15	=15	=15	=15	=15	=15	=15	=15	=15	=15	=15	=15	=15	=15	=15	=15	=15	=15
.	.	.	.	8qqcc/	.	.	.	.	.	.	.	.	.	.	.	.	.	.	.
8BB/	.	4G\	-son	4b\	-son	.	4g\	-son	.	8B/L	.	8g/L	.	4g/	.	4dd\	.	1ryy	1ryy
8r	.	.	.	.	.	.	.	.	.	8c/	.	8e/	.	.	.	.	.	.	.
8r	.	4r	.	4r	.	.	4r	.	.	8B/	.	8d/	.	4r	.	4r	.	.	.
8D\	.	.	.	.	.	.	.	.	.	8A/J	.	8c/J	.	.	.	.	.	.	.
!LO:TX:a:t=problem:mixed beam	!	!	!	!LO:TX:a:t=Sequit(ur) Kyrie Allegro	!	!	!LO:TX:a:t=Sequit(ur) Kyrie Allegro	!	!	!	!	!	!	!	!	!	!	!	!
8G\L	.	2r	.	2r	.	.	2r	.	.	8G/L	.	8B/L	.	2r	.	2r	.	.	.
8GG/J	.	.	.	.	.	.	.	.	.	8G/J	.	8B/J	.	.	.	.	.	.	.
4GG/	.	.	.	.	.	.	.	.	.	4G/	.	4B/	.	.	.	.	.	.	.
=16||	=16	=16||	=16	=16||	=16	=16||	=16||	=16	=16||	=16||	=16	=16||	=16	=16||	=16	=16||	=16	=16||	=16||
!LO:LB:g=original	!	!	!	!	!	!	!	!	!	!	!	!LO:LB:g=original	!	!	!	!	!	!	!
*M2/4	*	*M2/4	*	*M2/4	*	*	*M2/4	*	*	*M2/4	*	*M2/4	*	*M2/4	*	*M2/4	*	*	*
!LO:TX:a:B:t=all:	!	!LO:TX:a:B:t=all:	!	!LO:TX:a:B:t=all.	!	!	!LO:TX:a:B:t=all:	!	!	!LO:TX:a:B:t=all	!	!LO:TX:a:B:t=all	!	!LO:TX:a:B:t=Allegro	!	!LO:TX:a:B:t=all:	!	!	!
4c\	.	4c\	Ky-	4cc\	Ky-	Do-	4ee\	Ky-	Do-	4ee\	.	4ccc\	.	4cc\	.	4ee\	.	2ryy	2ryy
4G\	.	4G\	-rie	4b\	-rie	-na	4dd\	-rie	-na	4dd\	.	4bb\	.	4g\	.	4dd\	.	.	.
=17	=17	=17	=17	=17	=17	=17	=17	=17	=17	=17	=17	=17	=17	=17	=17	=17	=17	=17	=17
4C/	.	4C/	.	4cc\	.	nobiſ	4ee\	.	nobiſ	16ee\LL	.	16ccc\LL	.	4cc\	.	4ee\	.	2ryy	2ryy
.	.	.	.	.	.	.	.	.	.	16cc\	.	16cc\	.	.	.	.	.	.	.
.	.	.	.	.	.	.	.	.	.	16dd\	.	16dd\	.	.	.	.	.	.	.
.	.	.	.	.	.	.	.	.	.	16ee\JJ	.	16ee\JJ	.	.	.	.	.	.	.
4r	.	4r	.	4r	.	.	4r	.	.	16ff\LL	.	16ff\LL	.	4r	.	4r	.	.	.
.	.	.	.	.	.	.	.	.	.	16ee\	.	16gg\	.	.	.	.	.	.	.
.	.	.	.	.	.	.	.	.	.	16ff\	.	16aa\	.	.	.	.	.	.	.
.	.	.	.	.	.	.	.	.	.	16dd\JJ	.	16bb\JJ	.	.	.	.	.	.	.
=18	=18	=18	=18	=18	=18	=18	=18	=18	=18	=18	=18	=18	=18	=18	=18	=18	=18	=18	=18
4c\	.	4c\	Ky-	4cc\	Ky-	Do-	4ee\	Ky-	Do-	8ee\L	.	8ccc\L	.	4cc\	.	4ee\	.	2ryy	2ryy
.	.	.	.	.	.	.	.	.	.	8ee\J	.	8ccc\	.	.	.	.	.	.	.
4G\	.	4G\	-rie	4b\	-rie	-na	4dd\	-rie	-na	8dd\L	.	8bb\	.	4g\	.	4dd\	.	.	.
.	.	.	.	.	.	.	.	.	.	16dd\L	.	8bb\J	.	.	.	.	.	.	.
.	.	.	.	.	.	.	.	.	.	16ff\JJ	.	.	.	.	.	.	.	.	.
=19	=19	=19	=19	=19	=19	=19	=19	=19	=19	=19	=19	=19	=19	=19	=19	=19	=19	=19	=19
4C/	.	4C/	.	4cc\	.	nobiſ	4ee\	.	nobiſ	16ee\LL	.	16ccc\LL	.	4cc\	.	4ee\	.	2ryy	2ryy
.	.	.	.	.	.	.	.	.	.	16cc\	.	16ee\	.	.	.	.	.	.	.
.	.	.	.	.	.	.	.	.	.	16dd\	.	16ff\	.	.	.	.	.	.	.
.	.	.	.	.	.	.	.	.	.	16ee\JJ	.	16gg\JJ	.	.	.	.	.	.	.
8r	.	4r	.	4r	.	.	4r	.	.	16ff\LL	.	16aa\LL	.	4r	.	4r	.	.	.
.	.	.	.	.	.	.	.	.	.	16ee\	.	16gg\	.	.	.	.	.	.	.
8G\	.	.	.	.	.	.	.	.	.	16ff\	.	16aa\	.	.	.	.	.	.	.
.	.	.	.	.	.	.	.	.	.	16dd\JJ	.	16bb\JJ	.	.	.	.	.	.	.
=20	=20	=20	=20	=20	=20	=20	=20	=20	=20	=20	=20	=20	=20	=20	=20	=20	=20	=20	=20
!LO:TX:a:t=problem:mixed beam	!	!	!	!	!	!	!	!	!	!	!	!	!	!	!	!	!	!	!
8c\L	.	8c\	Ky-	8.cc\	Ky-	Do-	8.ee\	Ky-	do-	16ee\LL	.	16ccc\LL	.	8cc\L	.	8ee\L	.	2ryy	2ryy
.	.	.	.	.	.	.	.	.	.	16cc\	.	16ee\	.	.	.	.	.	.	.
8C/	.	8C/	-rie	.	.	.	.	.	.	16ee\	.	16ccc\	.	16cc\L	.	16ee\L	.	.	.
.	.	.	.	16cc\	-rie	-na	16ee\	-rie	-na	16cc\JJ	.	16ee\JJ	.	16cc\JJ	.	16ee\JJ	.	.	.
8E/	.	8E/	.	8cc\	.	no-	8ee\	.	no-	16ee\LL	.	16ccc\LL	.	8cc\L	.	8ee\L	.	.	.
.	.	.	.	.	.	.	.	.	.	16cc\	.	16ee\	.	.	.	.	.	.	.
8C/J	.	8C/	elei-	8cc\	e-	-biſ	8ee\	elei-	-biſ	16ee\	.	16ccc\	.	8cc\J	.	8ee\J	.	.	.
.	.	.	.	.	.	.	.	.	.	16cc\JJ	.	16ee\JJ	.	.	.	.	.	.	.
=21	=21	=21	=21	=21	=21	=21	=21	=21	=21	=21	=21	=21	=21	=21	=21	=21	=21	=21	=21
.	.	.	.	.	.	.	8qqee/	.	.	.	.	.	.	.	.	.	.	.	.
4G\	.	4G\	-son	4b\	-lei-	pa-	4dd\	-ſon	pa-	16b\LL	.	16dd\LL	.	4g/	.	4dd\	.	2ryy	2ryy
.	.	.	.	.	.	.	.	.	.	16dd\	.	16bb\	.	.	.	.	.	.	.
.	.	.	.	.	.	.	.	.	.	16dd\	.	16bb\	.	.	.	.	.	.	.
.	.	.	.	.	.	.	.	.	.	16dd\JJ	.	16dd\JJ	.	.	.	.	.	.	.
8G\L	.	8G\	.	8b\	-son	-cem	8dd\	.	-cem	16dd\LL	.	16bb\LL	.	8r	.	8r	.	.	.
.	.	.	.	.	.	.	.	.	.	16b\	.	16dd\	.	.	.	.	.	.	.
8c\J	.	16G\LL	e-	16b\LL	e-	da	16dd\LL	e-	da	16b\	.	16dd\	.	8g/	.	8dd\	.	.	.
.	.	16c\JJ	-lei-	16cc\JJ	-lei-	.	16ee\JJ	-lei-	pa-	16cc\JJ	.	16ee\JJ	.	.	.	.	.	.	.
=22	=22	=22	=22	=22	=22	=22	=22	=22	=22	=22	=22	=22	=22	=22	=22	=22	=22	=22	=22
!	!	!LO:LB:g=original	!	!	!	!	!	!	!	!LO:LB:g=original	!	!	!	!	!	!	!	!	!
.	.	.	.	8qqee/	.	.	8qqgg/	.	.	.	.	.	.	.	.	.	.	.	.
8d\L	.	8d\L	.	2dd\	.	pa-	2ff\	.	.	16dd\LL	.	16ff\LL	.	4dd\	.	4ff\	.	2ryy	2ryy
.	.	.	.	.	.	.	.	.	.	16ff\	.	16ddd\	.	.	.	.	.	.	.
8c\	.	8c\	.	.	.	.	.	.	.	16ff\	.	16ddd\	.	.	.	.	.	.	.
.	.	.	.	.	.	.	.	.	.	16dd\JJ	.	16ff\JJ	.	.	.	.	.	.	.
8B\	.	8B\	.	.	.	.	.	.	.	16dd\LL	.	16ff\LL	.	8r	.	8r	.	.	.
.	.	.	.	.	.	.	.	.	.	16ff\	.	16ddd\	.	.	.	.	.	.	.
8G\J	.	8G\J	.	.	.	.	.	.	.	16ff\	.	16ddd\	.	8dd\	.	8ff\	.	.	.
.	.	.	.	.	.	.	.	.	.	16dd\JJ	.	16ff\JJ	.	.	.	.	.	.	.
=23	=23	=23	=23	=23	=23	=23	=23	=23	=23	=23	=23	=23	=23	=23	=23	=23	=23	=23	=23
4C/	.	8c\	-son	8cc\	-son	-cem	8ee\	-ſon	-cem	8cc\L	.	8ee\L	.	8cc\L	.	8ee\L	.	2ryy	2ryy
.	.	16C/	Ky-	16cc\	Ky-	do-	16ee\	Ky-	do-	16cc\L	.	16ee\L	.	16cc\L	.	16ee\L	.	.	.
.	.	16C/	-rie	16cc\	-rie	na	16ee\	-ri-	-na	16cc\JJ	.	16ee\JJ	.	16cc\JJ	.	16ee\JJ	.	.	.
8r	.	8D/	.	8ee\	.	no-	8gg\	-e	no-	16ee\LL	.	16gg\LL	.	8cc\L	.	8ee\L	.	.	.
.	.	.	.	.	.	.	.	.	.	16cc\	.	16ee\	.	.	.	.	.	.	.
8C/	.	8C/	elei-	8cc\	e_lei-	-biſ	8ee\	e_lei-	-biſ	16ee\	.	16gg\	.	8cc\J	.	8ee\J	.	.	.
.	.	.	.	.	.	.	.	.	.	16cc\JJ	.	16ee\JJ	.	.	.	.	.	.	.
=24	=24	=24	=24	=24	=24	=24	=24	=24	=24	=24	=24	=24	=24	=24	=24	=24	=24	=24	=24
!	!	!	!	!	!	!	!	!	!	!	!	!LO:LB:g=original	!	!	!	!	!	!	!
4G\	.	4G\	-son	4b\	-ſon	pa-	4dd\	son	pa-	16b\LL	.	16dd\LL	.	4g/	.	4dd\	.	2ryy	2ryy
.	.	.	.	.	.	.	.	.	.	16dd\	.	16bb\	.	.	.	.	.	.	.
.	.	.	.	.	.	.	.	.	.	16dd\	.	16bb\	.	.	.	.	.	.	.
.	.	.	.	.	.	.	.	.	.	16b\JJ	.	16dd\JJ	.	.	.	.	.	.	.
8r	.	8B\	.	8b\	.	-cem	8dd\	.	-cem	16b\LL	.	16dd\LL	.	8g/L	.	8dd\L	.	.	.
.	.	.	.	.	.	.	.	.	.	16dd\	.	16bb\	.	.	.	.	.	.	.
8G\	.	8G\	e-	8b\	e-	da	8dd\	e-	da	16dd\	.	16bb\	.	8g/J	.	8dd\J	.	.	.
.	.	.	.	.	.	.	.	.	.	16b\JJ	.	16dd\JJ	.	.	.	.	.	.	.
=25	=25	=25	=25	=25	=25	=25	=25	=25	=25	=25	=25	=25	=25	=25	=25	=25	=25	=25	=25
.	.	.	.	8qqb/	.	.	8qqdd/	.	.	.	.	.	.	.	.	.	.	.	.
*	*	*	*	*	*	*	*	*	*	*	*	*	*	*	*	*2\right	*	*	*
8A\L	.	8A\L	-lei-	2a\	-lei	pa-	2cc\	-lei	pa-	16a\LL	.	16cc\LL	.	2dd\	.	2dd\	.	2ryy	2ryy
.	.	.	.	.	.	.	.	.	.	16cc\	.	16aa\	.	.	.	.	.	.	.
8G\	.	8G\	.	.	.	.	.	.	.	16cc\	.	16aa\	.	.	.	.	.	.	.
.	.	.	.	.	.	.	.	.	.	16a\JJ	.	16cc\JJ	.	.	.	.	.	.	.
8F#X\	.	8F#X\	.	.	.	.	.	.	.	16a\LL	.	16cc\LL	.	.	.	.	.	.	.
.	.	.	.	.	.	.	.	.	.	16cc\	.	16aa\	.	.	.	.	.	.	.
8D\J	.	8D\J	.	.	.	.	.	.	.	16b\	.	16gg\	.	.	.	.	.	.	.
.	.	.	.	.	.	.	.	.	.	16a\JJ	.	16ff#X\JJ	.	.	.	.	.	.	.
=26	=26	=26	=26	=26	=26	=26	=26	=26	=26	=26	=26	=26	=26	=26	=26	=26	=26	=26	=26
!	!	!	!	!LO:LB:g=original	!	!	!	!	!	!	!	!	!	!	!	!LO:LB:g=original	!	!	!
4G\	.	4G\	-son	8g\	-son	-cem	8b\	-son	-cem	8b\	.	8G/ 8d 8b 8gg	.	8g/	.	8dd\	.	2ryy	2ryy
.	.	.	.	16g\LL	.	da	16b\LL	.	.	8r	.	8r	.	8r	.	8r	.	.	.
.	.	.	.	16a\JJ	e-	.	16cc\JJ	e	da	.	.	.	.	.	.	.	.	.	.
8r	.	8r	.	8b\L	-lei-	pa-	8dd\L	-lei-	pa-	8r	.	8r	.	8r	.	8r	.	.	.
8G\	.	8G\	e-	8g\J	.	-cem	8b\J	.	.	8b\	.	8G/ 8d 8b 8gg	.	8dd\	.	8dd\	.	.	.
=27	=27	=27	=27	=27	=27	=27	=27	=27	=27	=27	=27	=27	=27	=27	=27	=27	=27	=27	=27
!	!	!	!	!	!	!	!LO:LB:g=original	!	!	!	!	!	!	!	!	!	!	!	!
4D\	.	4D\	-lei-	8f#X/	-son	.	8a\	-son	-cem	8a/	.	8d/ 8a 8ff#X	.	8dd\	.	8dd\	.	2ryy	2ryy
.	.	.	.	16f#/LL	e-	da	16a\LL	e-	da	8r	.	8r	.	8r	.	8r	.	.	.
.	.	.	.	16g/JJ	lei	.	16b\JJ	.	.	.	.	.	.	.	.	.	.	.	.
8r	.	8r	.	8a/L	.	pa-	8cc\L	-lei-	pa-	8r	.	8r	.	8r	.	8r	.	.	.
8D\	.	8D\	.	8f#/J	.	.	8a\J	.	-cem	8cc\	.	8d/ 8a 8ff#	.	8dd\	.	8dd\	.	.	.
=28	=28	=28	=28	=28	=28	=28	=28	=28	=28	=28	=28	=28	=28	=28	=28	=28	=28	=28	=28
!	!	!	!	!	!	!	!	!	!	!	!	!	!	!LO:LB:g=original	!	!	!	!	!
4G\	.	8.G\	-son	8.g\	-son	-cem	8.b\	-son	da	8.b\L	.	8.G/ 8.d 8.b 8.gg	.	8g/	.	8dd\	.	2ryy	2ryy
.	.	.	.	.	.	.	.	.	.	.	.	.	.	8r	.	8r	.	.	.
.	.	16G\	e-	16cc\	e-	da	16ee\	e-	.	16cc\Jk	.	16ee\	.	.	.	.	.	.	.
8F#X\L	.	8F#X\L	-lei-	8b\L	-lei-	pa-	(8dd\L	-lei-	pa-	8b/L	.	16dd\LL	.	8r	.	8r	.	.	.
.	.	.	.	.	.	.	.	.	.	.	.	16bb\	.	.	.	.	.	.	.
8D\J	.	8D\J	.	8a\J	.	.	8cc\J)	-son	-cem	8a/J	.	16dd\	.	8dd\	.	8dd\	.	.	.
.	.	.	.	.	.	.	.	.	.	.	.	16cc\JJ	.	.	.	.	.	.	.
=29	=29	=29	=29	=29	=29	=29	=29	=29	=29	=29	=29	=29	=29	=29	=29	=29	=29	=29	=29
!	!	!	!	!	!	!	!	!	!	!	!	!LO:TX:a:t=problem:tego taktu w ogóle nie ma w źródle, \nale raczej tu powinien być.	!	!	!	!	!	!	!
4GG/	.	8.G\	-son	8.g\	-son	-cem	8.b\	.	.	8.b\L	.	8.G/Lyy 8.dyy 8.byy 8.ggyy	.	8g/	.	8dd\	.	2ryy	2ryy
.	.	.	.	.	.	.	.	.	.	.	.	.	.	8r	.	8r	.	.	.
.	.	16G\	e-	16cc\	e-	.da	16ee\	e-	da	16cc\Jk	.	16ee/Jkyy	.	.	.	.	.	.	.
8F#X\L	.	8F#X\L	-lei-	8b/L	-lei-	pa-	8dd\L	-lei-	pa-	8b/L	.	16dd\LLyy	.	8r	.	8r	.	.	.
.	.	.	.	.	.	.	.	.	.	.	.	16bb\yy	.	.	.	.	.	.	.
8D\J	.	8D\J	.	8a/J	-ſon	.	8cc\J	-ſon	-cem	8a/J	.	16dd\yy	.	8dd\	.	8dd\	.	.	.
.	.	.	.	.	.	.	.	.	.	.	.	16cc\JJyy	.	.	.	.	.	.	.
=30	=30	=30	=30	=30	=30	=30	=30	=30	=30	=30	=30	=30	=30	=30	=30	=30	=30	=30	=30
!LO:TX:a:t=problem:mixed beam	!	!	!	!	!	!	!	!	!	!	!	!	!	!	!	!	!	!	!
8GG/L	.	8G\	-son	8b\	.	-cem	8b\	.	.	16g/LL	.	16b\LL	.	4g/	.	4dd\	.	2ryy	2ryy
.	.	.	.	.	.	.	.	.	.	16b/	.	16gg\	.	.	.	.	.	.	.
8G\J	.	8G\	e-	8b\	e-	da	8gg\	e-	da	16b/	.	16gg\	.	.	.	.	.	.	.
.	.	.	.	.	.	.	.	.	.	16b/JJ	.	16gg\JJ	.	.	.	.	.	.	.
8G\L	.	8G\L	-lei-	4b\	-lei-	pa-	4gg\	-lei-	pa-	16b/LL	.	16gg\LL	.	4r	.	4r	.	.	.
.	.	.	.	.	.	.	.	.	.	16b/	.	16gg\	.	.	.	.	.	.	.
16G\L	.	16G\L	.	.	.	.	.	.	.	16b/	.	16gg\	.	.	.	.	.	.	.
16F#X\JJ	.	16F#X\JJ	.	.	.	.	.	.	.	16b/JJ	.	16gg\JJ	.	.	.	.	.	.	.
=31	=31	=31	=31	=31	=31	=31	=31	=31	=31	=31	=31	=31	=31	=31	=31	=31	=31	=31	=31
!LO:LB:g=original	!	!LO:LB:g=original	!	!	!	!	!	!	!	!	!	!	!	!LO:N:vis=0	!	!LO:N:vis=0	!	!	!
4E\	.	8E\L	.	2b\	.	.	2gg\	.	.	16r	.	16r	.	1r	.	1r	.	2ryy	2ryy
.	.	.	.	.	.	.	.	.	.	16b/LL	.	16gg\LL	.	.	.	.	.	.	.
.	.	8E\J	.	.	.	.	.	.	.	16b/	.	16gg\	.	.	.	.	.	.	.
.	.	.	.	.	.	.	.	.	.	16b/JJ	.	16gg\JJ	.	.	.	.	.	.	.
8E\L	.	8E\L	.	.	.	.	.	.	.	16b/LL	.	16gg\LL	.	.	.	.	.	.	.
.	.	.	.	.	.	.	.	.	.	16b/	.	16gg\	.	.	.	.	.	.	.
16E\L	.	16E\L	.	.	.	.	.	.	.	16b/	.	16gg\	.	.	.	.	.	.	.
16D\JJ	.	16D\JJ	.	.	.	.	.	.	.	16b/JJ	.	16gg\JJ	.	.	.	.	.	.	.
=32	=32	=32	=32	=32	=32	=32	=32	=32	=32	=32	=32	=32	=32	=32	=32	=32	=32	=32	=32
!	!	!	!	!	!	!	!	!	!	!LO:LB:g=original	!	!LO:LB:g=original	!	!	!	!	!	!	!
4C/	.	8C#X/L	.	2b\	.	.	2gg\	.	.	16r	.	16r	.	.	.	.	.	2ryy	2ryy
*	*	*	*	*	*	*	*	*	*	*^	*	*	*	*	*	*	*	*	*
.	.	.	.	.	.	.	.	.	.	16ee/LL	16cc#X\LL	.	16gg\LL	.	.	.	.	.	.	.
.	.	8E/J	.	.	.	.	.	.	.	16ee/	16cc#\	.	16gg\	.	.	.	.	.	.	.
.	.	.	.	.	.	.	.	.	.	16ee/JJ	16cc#\JJ	.	16gg\JJ	.	.	.	.	.	.	.
8C#X/L	.	8AA/L	.	.	.	.	.	.	.	16ee/LL	16cc#\LL	.	16gg\LL	.	.	.	.	.	.	.
.	.	.	.	.	.	.	.	.	.	16ee/	16cc#\	.	16gg\	.	.	.	.	.	.	.
8AA/J	.	8C#/J	.	.	.	.	.	.	.	16ee/	16cc#\	.	16gg\	.	.	.	.	.	.	.
.	.	.	.	.	.	.	.	.	.	16ee/JJ	16cc#\JJ	.	16gg\JJ	.	.	.	.	.	.	.
*	*	*	*	*	*	*	*	*	*	*v	*v	*	*	*	*	*	*	*	*	*
=33	=33	=33	=33	=33	=33	=33	=33	=33	=33	=33	=33	=33	=33	=33	=33	=33	=33	=33	=33
8D\L	.	8D\	-son	8a\	-son	-cem	8ff#X\	-son	-cem	8a/L	.	8ff#X\L	.	4r	.	4r	.	2ryy	2ryy
*	*	*	*	*	*	*	*	*	*	*	*	*tuplet	*	*	*	*	*	*	*
!	!	!	!	!	!	!	!	!	!	!	!	!LO:TX:a:t=problem:zamiast 3 jest .	!	!	!	!	!	!	!
8D\	.	8D\	e-	8cc\	e-	da	8aa\	elei-	da	16ccn/L	.	(24aa\L	.	.	.	.	.	.	.
.	.	.	.	.	.	.	.	.	.	.	.	24ff#\	.	.	.	.	.	.	.
.	.	.	.	.	.	.	.	.	.	16b/JJ	.	.	.	.	.	.	.	.	.
.	.	.	.	.	.	.	.	.	.	.	.	24dd\JJ)	.	.	.	.	.	.	.
.	.	.	.	8qqb/	.	.	8qqdd/	.	.	.	.	.	.	.	.	.	.	.	.
8E\	.	8E\L	-lei-	4a\	-lei-	pa-	4cc\	.	pa-	16a/LL	.	16cc\LL	.	4dd\	.	4dd\	.	.	.
.	.	.	.	.	.	.	.	.	.	16a/	.	16cc\	.	.	.	.	.	.	.
8F#X\J	.	8F#X\J	-son	.	.	.	.	.	.	16a/	.	16cc\	.	.	.	.	.	.	.
.	.	.	.	.	.	.	.	.	.	16a/JJ	.	16cc\JJ	.	.	.	.	.	.	.
=34	=34	=34	=34	=34	=34	=34	=34	=34	=34	=34	=34	=34	=34	=34	=34	=34	=34	=34	=34
4G\	.	8G\	.	8g\	-son	-cem	8b\	-son	-cem	16g/LL	.	16b\LL	.	8g/	.	8dd\	.	2ryy	2ryy
.	.	.	.	.	.	.	.	.	.	16b/	.	16dd\	.	.	.	.	.	.	.
.	.	8G\	e-	8b\	e-	da	8gg\	e-	da	16b/	.	16gg\	.	8r	.	8r	.	.	.
.	.	.	.	.	.	.	.	.	.	16b/JJ	.	16gg\JJ	.	.	.	.	.	.	.
8D\L	.	8D\L	-lei-	8a\L	-lei-	pa-	8ff#X\L	-lei-	pa-	16a/LL	.	16ff#X\LL	.	8r	.	8r	.	.	.
.	.	.	.	.	.	.	.	.	.	16a/	.	16dd\	.	.	.	.	.	.	.
8F#X\J	.	8F#X\J	-son	16cc\L	.	.	16aa\L	.	.	16cc/	.	16aa\	.	8dd\	.	8dd\	.	.	.
.	.	.	.	16a\JJ	-son	.	16cc\JJ	.	.	16a/JJ	.	16cc\JJ	.	.	.	.	.	.	.
=35	=35	=35	=35	=35	=35	=35	=35	=35	=35	=35	=35	=35	=35	=35	=35	=35	=35	=35	=35
8G\	.	4G\	.	8g\	.	.	8b\	-son	-cem	8g\L	.	8b\L	.	8g/	.	8dd\	.	2ryy	2ryy
8r	.	.	.	8cc\	e-	-cem	8ee\	e-	da	16cc\L	.	16ee\L	.	8r	.	8r	.	.	.
.	.	.	.	.	.	.	.	.	.	16ee\JJ	.	16gg\JJ	.	.	.	.	.	.	.
8r	.	8r	.	8b\L	-lei-	da	8dd\L	-lei-	pa-	16b\LL	.	16dd\LL	.	4r	.	4r	.	.	.
.	.	.	.	.	.	.	.	.	.	16dd\	.	16gg\	.	.	.	.	.	.	.
8D\	.	16D\LL	e-	8a\J	.	pa-	8cc\J	.	.	16a\	.	16cc\	.	.	.	.	.	.	.
.	.	16F#X\JJ	lei	.	.	.	.	.	.	16cc\JJ	.	16a\JJ	.	.	.	.	.	.	.
=36	=36	=36	=36	=36	=36	=36	=36	=36	=36	=36	=36	=36	=36	=36	=36	=36	=36	=36	=36
!	!	!	!	!LO:LB:g=original	!	!	!	!	!	!	!	!	!	!	!	!	!	!	!
.	.	.	.	.	.	.	8qqcc/	.	.	.	.	.	.	.	.	.	.	.	.
!LO:TX:a:t=problem:mixed beam	!	!	!	!	!	!	!	!	!	!	!	!	!	!	!	!	!	!	!
8GG/L	.	4G\	.	2g\	.	.	2b\	.	.	16g/LL	.	16b\LL	.	2r	.	2r	.	2ryy	2ryy
.	.	.	.	.	.	.	.	.	.	16b/	.	16gg\	.	.	.	.	.	.	.
8G\	.	.	.	.	.	.	.	.	.	16b/	.	16gg\	.	.	.	.	.	.	.
.	.	.	.	.	.	.	.	.	.	16b/JJ	.	16gg\JJ	.	.	.	.	.	.	.
8E\	.	8E\L	.	.	.	.	.	.	.	16b/LL	.	16gg\LL	.	.	.	.	.	.	.
.	.	.	.	.	.	.	.	.	.	16b/	.	16gg\	.	.	.	.	.	.	.
8C#X\J	.	16C#X\L	.	.	.	.	.	.	.	16b/	.	16gg\	.	.	.	.	.	.	.
.	.	16E\JJ	.	.	.	.	.	.	.	16b/JJ	.	16gg\JJ	.	.	.	.	.	.	.
=37	=37	=37	=37	=37	=37	=37	=37	=37	=37	=37	=37	=37	=37	=37	=37	=37	=37	=37	=37
!	!	!	!	!	!	!	!LO:LB:g=original	!	!	!	!	!	!	!	!	!	!	!	!
.	.	.	.	8qqg/	.	.	.	.	.	.	.	.	.	.	.	.	.	.	.
4D\	.	8D\	-son	8.f#X/	-son	-cem	8.a\	-son	-cem	8.a/L	.	8.ff#X\L	.	4r	.	4r	.	2ryy	2ryy
.	.	8D\	e-	.	.	.	.	.	.	.	.	.	.	.	.	.	.	.	.
.	.	.	.	16cc\	e-	da	16ee\	e-	da	16cc/Jk	.	16ee\Jk	.	.	.	.	.	.	.
8E\L	.	8E\L	-lei-	8b\L	-lei-	pa-	8dd\L	-lei-	pa-	16b/LL	.	16dd\LL	.	8r	.	8r	.	.	.
.	.	.	.	.	.	.	.	.	.	16g/	.	16b\	.	.	.	.	.	.	.
8F#X\J	.	8F#X\J	.	8a\J	.	.	8cc\J	.	.	16a/	.	16cc\	.	8dd\	.	8dd\	.	.	.
.	.	.	.	.	.	.	.	.	.	16f#X/JJ	.	16a\JJ	.	.	.	.	.	.	.
=38	=38	=38	=38	=38	=38	=38	=38	=38	=38	=38	=38	=38	=38	=38	=38	=38	=38	=38	=38
4G\	.	8G\	-son	8.g\	-son	-cem	8.b\	-son	-cem	8g/L	.	8.G/L 8.d 8.b 8.gg	.	8g/	.	8dd\	.	2ryy	2ryy
.	.	8G\	e-	.	.	.	.	.	.	8b/J	.	.	.	8r	.	8r	.	.	.
.	.	.	.	16cc\	e-	da	16ee\	e-	da	.	.	16ee/Jk	.	.	.	.	.	.	.
8F#X\L	.	8F#X\L	-lei-	8b\L	-lei-	pa-	8dd\L	-lei-	pa-	16b/LL	.	16dd\LL	.	8r	.	8r	.	.	.
.	.	.	.	.	.	.	.	.	.	16g/	.	16b\	.	.	.	.	.	.	.
8D\J	.	8D\J	.	8a\J	.	.	8cc\J	-ſon	-cem	16a/	.	16cc\	.	8dd\	.	8dd\	.	.	.
.	.	.	.	.	.	.	.	.	.	16f/JJ	.	16a\JJ	.	.	.	.	.	.	.
=39	=39	=39	=39	=39	=39	=39	=39	=39	=39	=39	=39	=39	=39	=39	=39	=39	=39	=39	=39
!LO:TX:a:t=problem:mixed beam	!	!	!	!	!	!	!	!	!	!	!	!	!	!	!	!	!	!	!
8G\L	.	8G\	-son	8g\	-son	-cem	8b\	.	.	8g/L	.	8b\L	.	8g/	.	8dd\	.	2ryy	2ryy
8BB/	.	8G\	e-	8b\	e-	da	8gg\	e-	da	8b/J	.	16ee\L	.	8r	.	8r	.	.	.
.	.	.	.	.	.	.	.	.	.	.	.	16gg\JJ	.	.	.	.	.	.	.
8C/	.	8c\L	-lei-	8cc\L	-lei-	pa-	8ee\L	-lei-	pa-	8cc\L	.	16ee\LL	.	8r	.	8r	.	.	.
.	.	.	.	.	.	.	.	.	.	.	.	16gg\	.	.	.	.	.	.	.
8E/J	.	8e\J	.	8a\J	.	.	8cc\J	.	.	16cc\L	.	16ee\	.	8dd\	.	8dd\	.	.	.
.	.	.	.	.	.	.	.	.	.	16a\JJ	.	16cc\JJ	.	.	.	.	.	.	.
=40	=40	=40	=40	=40	=40	=40	=40	=40	=40	=40	=40	=40	=40	=40	=40	=40	=40	=40	=40
.	.	.	.	.	.	.	8qqcc/	.	.	.	.	.	.	.	.	.	.	.	.
4D\	.	4d\	.	8g/L	.	.	8b\L	.	.	16g\LL	.	16b\LL	.	4r	.	4r	.	2ryy	2ryy
.	.	.	.	.	.	.	.	.	.	16b\	.	16gg\	.	.	.	.	.	.	.
.	.	.	.	16f#X/L	.	.	16a\L	.	.	16dd\	.	16bb\	.	.	.	.	.	.	.
.	.	.	.	16e/JJ	.	.	16g\JJ	.	.	16b\JJ	.	16gg\JJ	.	.	.	.	.	.	.
.	.	.	.	8qqg/	.	.	8qqb/	.	.	.	.	.	.	.	.	.	.	.	.
4DD/	.	4D\	.	4f#/	.	.	4a\	.	.	16f#X/LL	.	16a\LL	.	4dd\	.	4dd\	.	.	.
.	.	.	.	.	.	.	.	.	.	16a/	.	16ff#X\	.	.	.	.	.	.	.
.	.	.	.	.	.	.	.	.	.	16cc/	.	16aa\	.	.	.	.	.	.	.
.	.	.	.	.	.	.	.	.	.	16a/JJ	.	16ff#\JJ	.	.	.	.	.	.	.
=41	=41	=41	=41	=41	=41	=41	=41	=41	=41	=41	=41	=41	=41	=41	=41	=41	=41	=41	=41
!LO:TX:a:t=problem:mixed beam	!	!LO:LB:g=original	!	!	!	!	!	!	!	!LO:LB:g=original	!LO:DY:t=fo	!LO:LB:g=original	!	!	!LO:DY:b	!	!LO:DY:b	!	!
8GG/L	f	4G\	-son	4g\	-son	-cem	4g\	-son	-cem	8b\L	f	8G/ 8d 8b 8gg	.	4g/	f	4dd\	f	2ryy	2ryy
8G\	.	.	.	.	.	.	.	.	.	16dd\L	.	(>24bb\L	.	.	.	.	.	.	.
.	.	.	.	.	.	.	.	.	.	.	.	24gg\	.	.	.	.	.	.	.
.	.	.	.	.	.	.	.	.	.	16b\JJ	.	.	.	.	.	.	.	.	.
.	.	.	.	.	.	.	.	.	.	.	.	24dd\J)	.	.	.	.	.	.	.
8D\	.	4r	.	4r	.	.	4r	.	.	8a\L	.	8d\ 8cc 8ff#X	.	8r	.	8r	.	.	.
8F#X/\	.	.	.	.	.	.	.	.	.	16cc\L	.	(24aa\L	.	8dd\	.	8dd\	.	.	.
.	.	.	.	.	.	.	.	.	.	.	.	24ff#\	.	.	.	.	.	.	.
.	.	.	.	.	.	.	.	.	.	16a\JJ	.	.	.	.	.	.	.	.	.
.	.	.	.	.	.	.	.	.	.	.	.	24cc\J)	.	.	.	.	.	.	.
=42	=42	=42	=42	=42	=42	=42	=42	=42	=42	=42	=42	=42	=42	=42	=42	=42	=42	=42	=42
!	!	!LO:TX:a:t=13	!	!LO:TX:a:t=11	!	!	!LO:TX:a:t=11	!	!	!	!	!	!	!	!	!LO:LB:g=original	!	!	!
!LO:TX:a:t=problem:mixed beam	!	!LO:N:vis=00	!	!LO:N:vis=00	!	!	!LO:N:vis=00	!	!	!	!	!	!	!	!	!	!	!	!
8GG/L	.	0r	.	0r	.	.	0r	.	.	8b\L	.	8G/ 8d 8b 8gg	.	4g/	.	4dd\	.	2ryy	2ryy
8G\	.	.	.	.	.	.	.	.	.	16dd\L	.	(24bb\L	.	.	.	.	.	.	.
.	.	.	.	.	.	.	.	.	.	.	.	24gg\	.	.	.	.	.	.	.
.	.	.	.	.	.	.	.	.	.	16b\JJ	.	.	.	.	.	.	.	.	.
.	.	.	.	.	.	.	.	.	.	.	.	24dd\J)	.	.	.	.	.	.	.
8D\	.	.	.	.	.	.	.	.	.	8a\L	.	8d/ 8cc 8ff#X	.	8r	.	8r	.	.	.
8F#X\J	.	.	.	.	.	.	.	.	.	16cc\L	.	(24aa\L	.	8dd\	.	8dd\	.	.	.
.	.	.	.	.	.	.	.	.	.	.	.	24ff#\	.	.	.	.	.	.	.
.	.	.	.	.	.	.	.	.	.	16a\JJ	.	.	.	.	.	.	.	.	.
.	.	.	.	.	.	.	.	.	.	.	.	24cc\J)	.	.	.	.	.	.	.
=43	=43	=43	=43	=43	=43	=43	=43	=43	=43	=43	=43	=43	=43	=43	=43	=43	=43	=43	=43
!LO:TX:a:t=problem:mixed beam	!	!	!	!	!	!	!	!	!	!	!	!	!	!	!	!	!	!	!
8GG/L	.	.	.	.	.	.	.	.	.	16g/LL	.	16`b\LL	.	8g/	.	8dd\	.	2ryy	2ryy
.	.	.	.	.	.	.	.	.	.	16b/	.	(16gg\	.	.	.	.	.	.	.
8G\	.	.	.	.	.	.	.	.	.	16a/	.	16ff#X\	.	8r	.	8r	.	.	.
.	.	.	.	.	.	.	.	.	.	16b/JJ	.	16gg\JJ)	.	.	.	.	.	.	.
8G\	.	.	.	.	.	.	.	.	.	16a/LL	.	(16ff#\LL	.	4r	.	4r	.	.	.
.	.	.	.	.	.	.	.	.	.	16b/	.	16gg\)	.	.	.	.	.	.	.
8G\J	.	.	.	.	.	.	.	.	.	16a/	.	(16ff#\	.	.	.	.	.	.	.
.	.	.	.	.	.	.	.	.	.	16b/JJ	.	16gg\JJ)	.	.	.	.	.	.	.
=44	=44	=44	=44	=44	=44	=44	=44	=44	=44	=44	=44	=44	=44	=44	=44	=44	=44	=44	=44
8C/L	.	.	.	.	.	.	.	.	.	16r	.	16r	.	2r	.	2r	.	2ryy	2ryy
.	.	.	.	.	.	.	.	.	.	16cc\LL	.	16`ee\LL	.	.	.	.	.	.	.
8C/	.	.	.	.	.	.	.	.	.	16b\	.	(16dd\	.	.	.	.	.	.	.
.	.	.	.	.	.	.	.	.	.	16cc\JJ	.	16ee\JJ)	.	.	.	.	.	.	.
8C/	.	.	.	.	.	.	.	.	.	16b\LL	.	16dd\LL	.	.	.	.	.	.	.
.	.	.	.	.	.	.	.	.	.	16cc\	.	16ee\	.	.	.	.	.	.	.
8C/J	.	.	.	.	.	.	.	.	.	16b\	.	16dd\	.	.	.	.	.	.	.
.	.	.	.	.	.	.	.	.	.	16cc\JJ	.	16ee\JJ	.	.	.	.	.	.	.
=45	=45	=45	=45	=45	=45	=45	=45	=45	=45	=45	=45	=45	=45	=45	=45	=45	=45	=45	=45
4D/	.	.	.	.	.	.	.	.	.	8d/L	.	8.d/L	.	4r	.	4r	.	2ryy	2ryy
.	.	.	.	.	.	.	.	.	.	16g/L	.	.	.	.	.	.	.	.	.
.	.	.	.	.	.	.	.	.	.	16f/JJ	.	32g/LL	.	.	.	.	.	.	.
.	.	.	.	.	.	.	.	.	.	.	.	32a/JJJ	.	.	.	.	.	.	.
4DD/	.	.	.	.	.	.	.	.	.	8f/L	.	4a/	.	4dd\	.	4dd\	.	.	.
.	.	.	.	.	.	.	.	.	.	16d/L	.	.	.	.	.	.	.	.	.
.	.	.	.	.	.	.	.	.	.	16c/JJ	.	.	.	.	.	.	.	.	.
=46	=46	=46	=46	=46	=46	=46	=46	=46	=46	=46	=46	=46	=46	=46	=46	=46	=46	=46	=46
!LO:LB:g=original	!	!LO:N:vis=00	!	!LO:N:vis=00	!	!	!LO:N:vis=00	!	!	!LO:TX:a:t=problem:mixed beam	!	!	!	!LO:LB:g=original	!	!	!	!	!
4GG/	.	0r	.	0r	.	.	0r	.	.	8B/L	.	8g\	.	8g/	.	8dd\	.	2ryy	2ryy
.	.	.	.	.	.	.	.	.	.	16dd\L	.	(24bb\L	.	8r	.	8r	.	.	.
.	.	.	.	.	.	.	.	.	.	.	.	24gg\	.	.	.	.	.	.	.
.	.	.	.	.	.	.	.	.	.	16b\JJ	.	.	.	.	.	.	.	.	.
.	.	.	.	.	.	.	.	.	.	.	.	24dd\J)	.	.	.	.	.	.	.
8D\L	.	.	.	.	.	.	.	.	.	16a/LL	.	16cc\LL	.	8r	.	8r	.	.	.
.	.	.	.	.	.	.	.	.	.	16g/	.	16b\	.	.	.	.	.	.	.
8F#X\J	.	.	.	.	.	.	.	.	.	16g/	.	16b\	.	8dd\	.	8dd\	.	.	.
.	.	.	.	.	.	.	.	.	.	16f#X/JJ	.	16a\JJ	.	.	.	.	.	.	.
=47	=47	=47	=47	=47	=47	=47	=47	=47	=47	=47	=47	=47	=47	=47	=47	=47	=47	=47	=47
4G\	.	.	.	.	.	.	.	.	.	8g\L	.	8b\L	.	8g/	.	8dd\	.	2ryy	2ryy
.	.	.	.	.	.	.	.	.	.	16dd\L	.	(24bb\L	.	8r	.	8r	.	.	.
.	.	.	.	.	.	.	.	.	.	.	.	24gg\	.	.	.	.	.	.	.
.	.	.	.	.	.	.	.	.	.	16b\JJ	.	.	.	.	.	.	.	.	.
.	.	.	.	.	.	.	.	.	.	.	.	24dd\JJ)	.	.	.	.	.	.	.
8D\L	.	.	.	.	.	.	.	.	.	16a/LL	.	16cc\LL	.	4r	.	4r	.	.	.
.	.	.	.	.	.	.	.	.	.	16g/	.	16b\	.	.	.	.	.	.	.
8F#X\J	.	.	.	.	.	.	.	.	.	16g/	.	16b\	.	.	.	.	.	.	.
.	.	.	.	.	.	.	.	.	.	16f#X/JJ	.	16a\JJ	.	.	.	.	.	.	.
=48	=48	=48	=48	=48	=48	=48	=48	=48	=48	=48	=48	=48	=48	=48	=48	=48	=48	=48	=48
!LO:TX:a:t=problem:mixed beam	!	!	!	!	!	!	!	!	!	!	!	!	!LO:DY:t=pi	!LO:N:vis=0	!	!LO:N:vis=0	!	!	!
8G\L	p	.	.	.	.	.	.	.	.	4B/	p	4g/	p	1r	.	1r	.	2ryy	2ryy
8GG/	.	.	.	.	.	.	.	.	.	.	.	.	.	.	.	.	.	.	.
8BB/	.	.	.	.	.	.	.	.	.	4d/	.	4fn/	.	.	.	.	.	.	.
8GG/J	.	.	.	.	.	.	.	.	.	.	.	.	.	.	.	.	.	.	.
=49	=49	=49	=49	=49	=49	=49	=49	=49	=49	=49	=49	=49	=49	=49	=49	=49	=49	=49	=49
8C/L	.	.	.	.	.	.	.	.	.	4c/	.	4e/	.	.	.	.	.	2ryy	2ryy
8C/	.	.	.	.	.	.	.	.	.	.	.	.	.	.	.	.	.	.	.
8D/	.	.	.	.	.	.	.	.	.	4A/	.	4f#X/	.	.	.	.	.	.	.
8D/J	.	.	.	.	.	.	.	.	.	.	.	.	.	.	.	.	.	.	.
=50	=50	=50	=50	=50	=50	=50	=50	=50	=50	=50	=50	=50	=50	=50	=50	=50	=50	=50	=50
!LO:TX:a:t=problem:mixed beam	!	!LO:N:vis=00	!	!LO:N:vis=0	!	!	!LO:N:vis=0	!	!	!LO:LB:g=original	!	!LO:LB:g=original	!	!	!	!	!	!	!
8G\L	.	0r	.	1r	.	.	1r	.	.	4B/	.	4g/	.	2r	.	2r	.	2ryy	2ryy
8GG/	.	.	.	.	.	.	.	.	.	.	.	.	.	.	.	.	.	.	.
8BB/	.	.	.	.	.	.	.	.	.	4d/	.	4fn/	.	.	.	.	.	.	.
8GG/J	.	.	.	.	.	.	.	.	.	.	.	.	.	.	.	.	.	.	.
=51	=51	=51	=51	=51	=51	=51	=51	=51	=51	=51	=51	=51	=51	=51	=51	=51	=51	=51	=51
8C/L	.	.	.	.	.	.	.	.	.	4c/	.	4e/	.	4r	.	4r	.	2ryy	2ryy
8C/J	.	.	.	.	.	.	.	.	.	.	.	.	.	.	.	.	.	.	.
!	!	!	!	!	!	!	!	!	!	!	!	!	!LO:DY:t=for	!	!	!	!	!	!
.	.	.	.	.	.	.	.	.	.	.	.	8qqg/	f	.	.	.	.	.	.
!	!LO:DY:t=fo	!	!	!	!	!	!	!	!	!	!	!	!	!	!	!	!	!	!
8D\L	f	.	.	.	.	.	.	.	.	8A/L	.	8f#X/L	.	4dd\	.	4dd\	.	.	.
8F#X\J	.	.	.	.	.	.	.	.	.	16A/L	.	16f#/L	.	.	.	.	.	.	.
.	.	.	.	.	.	.	.	.	.	16c/JJ	.	16a/JJ	.	.	.	.	.	.	.
=52	=52	=52	=52	=52	=52	=52	=52	=52	=52	=52	=52	=52	=52	=52	=52	=52	=52	=52	=52
!LO:TX:a:t=problem:mixed beam	!	!	!	!	!	!	!	!	!	!	!	!	!	!	!	!	!	!	!
8G\L	.	.	.	2r	.	.	2r	.	.	8B/L	.	8g/L	.	8g/L	.	8dd\L	.	2ryy	2ryy
8GG/J	.	.	.	.	.	.	.	.	.	16B/L	.	16d/L	.	16g/L	.	16dd\L	.	.	.
.	.	.	.	.	.	.	.	.	.	16B/JJ	.	16B/JJ	.	16g/JJ	.	16dd\JJ	.	.	.
4GG/	.	.	.	.	.	.	.	.	.	4B/	.	4G/	.	4g/	.	4dd\	.	.	.
=53	=53	=53	=53	=53	=53	=53	=53	=53	=53	=53	=53	=53	=53	=53	=53	=53	=53	=53	=53
!	!LO:DY:t=p:	!	!	!	!	!	!	!	!	!	!	!	!	!LO:N:vis=00	!	!LO:N:vis=00	!	!	!
8r	p	.	.	2b\	Chri-	do-	2dd\	Chri-	do-	8r	.	8r	.	0r	.	0r	.	2ryy	2ryy
!	!	!	!	!	!	!	!	!	!	!	!LO:DY:t=pi	!	!LO:DY:t=pia	!	!	!	!	!	!
8G\L	.	.	.	.	.	.	.	.	.	8b\L	p	8dd\L	p	.	.	.	.	.	.
8B\	.	.	.	.	.	.	.	.	.	8dd\	.	8bb\	.	.	.	.	.	.	.
8G\J	.	.	.	.	.	.	.	.	.	8b\J	.	8dd\J	.	.	.	.	.	.	.
=54	=54	=54	=54	=54	=54	=54	=54	=54	=54	=54	=54	=54	=54	=54	=54	=54	=54	=54	=54
.	.	.	.	8qqb/	.	.	8qqdd/	.	.	.	.	.	.	.	.	.	.	.	.
8r	.	2r	.	2a\	-ste	-na	2cc\	.	-na	8r	.	8r	.	.	.	.	.	2ryy	2ryy
8A\L	.	.	.	.	.	.	.	.	.	8a\L	.	8cc\L	.	.	.	.	.	.	.
8F#X\	.	.	.	.	.	.	.	.	.	8cc\	.	8aa\	.	.	.	.	.	.	.
8D\J	.	.	.	.	.	.	.	.	.	8a\J	.	8cc\J	.	.	.	.	.	.	.
=55	=55	=55	=55	=55	=55	=55	=55	=55	=55	=55	=55	=55	=55	=55	=55	=55	=55	=55	=55
.	.	.	.	.	.	.	8qqcc/	.	.	.	.	.	.	.	.	.	.	.	.
!	!	!	!	!	!	!	!	!	!	!	!LO:DY:t=fo	!	!LO:DY:t=fo	!	!	!	!	!	!
8r	.	8r	.	2g/	Chri-	no-	2b\	.	no-	16g/LL	f	16b\LL	f	.	.	.	.	2ryy	2ryy
.	.	.	.	.	.	.	.	.	.	16b/	.	16gg\	.	.	.	.	.	.	.
!LO:TX:a:t=problem:mixed beam	!LO:DY:t=fo	!	!	!	!	!	!	!	!	!	!	!	!	!	!	!	!	!	!
8G\L	f	8G\L	Chri-	.	.	.	.	.	.	16a/	.	16ff#X\	.	.	.	.	.	.	.
.	.	.	.	.	.	.	.	.	.	16b/JJ	.	16gg\JJ	.	.	.	.	.	.	.
8E/	.	8E\	.	.	.	.	.	.	.	16a/LL	.	16ff#\LL	.	.	.	.	.	.	.
.	.	.	.	.	.	.	.	.	.	16b/	.	16gg\	.	.	.	.	.	.	.
8C#X\J	.	8C#X\J	.	.	.	.	.	.	.	16b/	.	16gg\	.	.	.	.	.	.	.
.	.	.	.	.	.	.	.	.	.	16g/JJ	.	16b\JJ	.	.	.	.	.	.	.
=56	=56	=56	=56	=56	=56	=56	=56	=56	=56	=56	=56	=56	=56	=56	=56	=56	=56	=56	=56
.	.	.	.	8qqa/	.	.	8qqcc/	.	.	.	.	.	.	.	.	.	.	.	.
!LO:TX:a:t=problem:mixed beam	!	!	!	!	!	!	!	!	!	!	!	!	!	!	!	!	!	!	!
8D\L	.	8D\	-ste	8g/	-ste	-biſ	8b\	-ste	-biſ	8f/L	.	16a\LL	.	.	.	.	.	2ryy	2ryy
.	.	.	.	.	.	.	.	.	.	.	.	16dd\JJ	.	.	.	.	.	.	.
8DD/J	.	8D\	.	8f#X/	.	.	8a\	.	.	32a/LL	.	32a/LLL	.	.	.	.	.	.	.
.	.	.	.	.	.	.	.	.	.	32g/	.	32g/	.	.	.	.	.	.	.
.	.	.	.	.	.	.	.	.	.	32f/	.	32f/	.	.	.	.	.	.	.
.	.	.	.	.	.	.	.	.	.	32e/JJJ	.	32e/JJJ	.	.	.	.	.	.	.
4DD/	.	4r	.	4r	.	.	4r	.	.	8d/	.	8d/	.	.	.	.	.	.	.
.	.	.	.	.	.	.	.	.	.	8r	.	8r	.	.	.	.	.	.	.
=57	=57	=57	=57	=57	=57	=57	=57	=57	=57	=57	=57	=57	=57	=57	=57	=57	=57	=57	=57
!	!	!LO:N:vis=0	!	!	!	!	!	!	!	!LO:LB:g=original	!	!	!LO:DY:t=pi	!LO:N:vis=00	!	!LO:N:vis=00	!	!	!
8r	p	1r	.	2b\	Chri-	do-	2dd\	Chri-	do-	8r	p	8r	p	0r	.	0r	.	2ryy	2ryy
8G\L	.	.	.	.	.	.	.	.	.	8b\L	.	8dd\L	.	.	.	.	.	.	.
8B\	.	.	.	.	.	.	.	.	.	8dd\	.	8bb\	.	.	.	.	.	.	.
8G\J	.	.	.	.	.	.	.	.	.	8b\J	.	8dd\J	.	.	.	.	.	.	.
=58	=58	=58	=58	=58	=58	=58	=58	=58	=58	=58	=58	=58	=58	=58	=58	=58	=58	=58	=58
.	.	.	.	.	.	.	8qqdd/	.	.	.	.	.	.	.	.	.	.	.	.
8r	.	.	.	2a\	-ste	-na	2cc\	.	-na	8r	.	8r	.	.	.	.	.	2ryy	2ryy
8A\L	.	.	.	.	.	.	.	.	.	8a\L	.	8cc\L	.	.	.	.	.	.	.
8F#X\	.	.	.	.	.	.	.	.	.	8cc\	.	8aa\	.	.	.	.	.	.	.
8D\J	.	.	.	.	.	.	.	.	.	8a\J	.	8cc\J	.	.	.	.	.	.	.
=59	=59	=59	=59	=59	=59	=59	=59	=59	=59	=59	=59	=59	=59	=59	=59	=59	=59	=59	=59
!	!	!	!	!LO:LB:g=original	!	!	!	!	!	!	!	!	!	!	!	!	!	!	!
.	.	.	.	.	.	.	8qqcc/	.	.	.	.	.	.	.	.	.	.	.	.
!	!LO:DY:t=fo	!	!	!	!	!	!	!	!	!	!LO:DY:t=fo	!	!LO:DY:t=fo	!	!	!	!	!	!
8r	f	8r	.	2g/	Chri-	no-	2b\	.	no-	16g/LL	f	16b\LL	f	.	.	.	.	2ryy	2ryy
.	.	.	.	.	.	.	.	.	.	16b/	.	16gg\	.	.	.	.	.	.	.
8G\L	.	8G\L	Chri-	.	.	.	.	.	.	16a/	.	16ff#X\	.	.	.	.	.	.	.
.	.	.	.	.	.	.	.	.	.	16b/JJ	.	16gg\JJ	.	.	.	.	.	.	.
8E\	.	8E\	.	.	.	.	.	.	.	16a/LL	.	16ff#\LL	.	.	.	.	.	.	.
.	.	.	.	.	.	.	.	.	.	16b/	.	16gg\	.	.	.	.	.	.	.
8C#X\J	.	8C#X\J	.	.	.	.	.	.	.	16b/	.	16gg\	.	.	.	.	.	.	.
.	.	.	.	.	.	.	.	.	.	16g/JJ	.	16b\JJ	.	.	.	.	.	.	.
=60	=60	=60	=60	=60	=60	=60	=60	=60	=60	=60	=60	=60	=60	=60	=60	=60	=60	=60	=60
.	.	.	.	.	.	.	8qqcc/	.	.	.	.	.	.	.	.	.	.	.	.
!LO:TX:a:t=problem:mixed beam	!	!	!	!	!	!	!	!	!	!	!	!	!	!	!	!	!	!	!
8D\L	.	8D\	-ste	8g/	-ste	-biſ	8b\	-ste	-biſ	8f/L	.	16a\LL	.	.	.	.	.	2ryy	2ryy
.	.	.	.	.	.	.	.	.	.	.	.	16dd\JJ	.	.	.	.	.	.	.
8DD/J	.	8D\	.	8f#X/	.	.	8a\	.	.	(32a/LL	.	(32a/LLL	.	.	.	.	.	.	.
.	.	.	.	.	.	.	.	.	.	32g/	.	32g/	.	.	.	.	.	.	.
.	.	.	.	.	.	.	.	.	.	32f/	.	32f/	.	.	.	.	.	.	.
.	.	.	.	.	.	.	.	.	.	32e/JJJ)	.	32e/JJJ)	.	.	.	.	.	.	.
4DD/	.	4r	.	4r	.	.	4r	.	.	8d/	.	8d/	.	.	.	.	.	.	.
.	.	.	.	.	.	.	.	.	.	8r	.	8r	.	.	.	.	.	.	.
=61	=61	=61	=61	=61	=61	=61	=61	=61	=61	=61	=61	=61	=61	=61	=61	=61	=61	=61	=61
!LO:LB:g=original	!	!	!	!LO:N:vis=0	!	!	!LO:LB:g=original	!	!	!LO:LB:g=original	!	!LO:LB:g=original	!LO:DY:t=pi	!LO:N:vis=00	!	!LO:N:vis=00	!	!	!
!	!	!LO:N:vis=0	!	!	!	!	!	!	!	!LO:N:vis=0	!	!LO:TX:a:t=problem:mixed beam	!	!	!	!	!	!	!
8r	.	1r	.	1r	.	.	2d/	Chri-	Do-	1r	.	8`dd\L	p	0r	.	0r	.	2ryy	2ryy
!LO:TX:a:t=problem:mixed beam	!	!	!	!	!	!	!	!	!	!	!	!	!	!	!	!	!	!	!
8D\L	p	.	.	.	.	.	.	.	.	.	.	8d/	.	.	.	.	.	.	.
8DD/	.	.	.	.	.	.	.	.	.	.	.	8d/	.	.	.	.	.	.	.
8D\J	.	.	.	.	.	.	.	.	.	.	.	8d/J	.	.	.	.	.	.	.
=62	=62	=62	=62	=62	=62	=62	=62	=62	=62	=62	=62	=62	=62	=62	=62	=62	=62	=62	=62
8r	.	.	.	.	.	.	2e/	-ste	-na	.	.	8`dd\L	.	.	.	.	.	2ryy	2ryy
8C#X/L	.	.	.	.	.	.	.	.	.	.	.	8e/	.	.	.	.	.	.	.
8C#/	.	.	.	.	.	.	.	.	.	.	.	8e/	.	.	.	.	.	.	.
8C#/J	.	.	.	.	.	.	.	.	.	.	.	8e/J	.	.	.	.	.	.	.
=63	=63	=63	=63	=63	=63	=63	=63	=63	=63	=63	=63	=63	=63	=63	=63	=63	=63	=63	=63
!	!	!	!	!	!	!	!	!	!	!	!LO:DY:t=fo	!	!LO:DY:t=fo	!	!	!	!	!	!
.	.	.	.	.	.	.	8qqg/	.	.	.	.	.	.	.	.	.	.	.	.
8r	.	2Cn/	Chri-	2a\	Chri-	no-	2f#X/	Chri-	no-	16r	f	16dd/LL	f	.	.	.	.	2ryy	2ryy
*	*	*	*	*	*	*	*	*	*	*	*	*^	*	*	*	*	*	*	*
.	.	.	.	.	.	.	.	.	.	16a/LL	.	16a/	16f#X\LL	.	.	.	.	.	.	.
!	!LO:DY:t=fo	!	!	!	!	!	!	!	!	!	!	!	!	!	!	!	!	!	!	!
8Cn/L	f	.	.	.	.	.	.	.	.	16a/	.	16a/	16f#\	.	.	.	.	.	.	.
.	.	.	.	.	.	.	.	.	.	16a/JJ	.	16a/JJ	16f#\JJ	.	.	.	.	.	.	.
8C/	.	.	.	.	.	.	.	.	.	16a/LL	.	16a/LL	16f#\LL	.	.	.	.	.	.	.
.	.	.	.	.	.	.	.	.	.	16a/	.	16a/	16f#\	.	.	.	.	.	.	.
8C/J	.	.	.	.	.	.	.	.	.	16a/	.	16a/	16f#\	.	.	.	.	.	.	.
.	.	.	.	.	.	.	.	.	.	16a/JJ	.	16a/JJ	16f#\JJ	.	.	.	.	.	.	.
*	*	*	*	*	*	*	*	*	*	*	*	*v	*v	*	*	*	*	*	*	*
=64	=64	=64	=64	=64	=64	=64	=64	=64	=64	=64	=64	=64	=64	=64	=64	=64	=64	=64	=64
4BB/	.	4.BB/	-ste	4.g\	-ste	-biſ	4.g/	-ste	-biſ	16b/LL	.	16dd\LL	.	.	.	.	.	2ryy	2ryy
.	.	.	.	.	.	.	.	.	.	16g/	.	16b\	.	.	.	.	.	.	.
.	.	.	.	.	.	.	.	.	.	16g/	.	16b\	.	.	.	.	.	.	.
.	.	.	.	.	.	.	.	.	.	16g/JJ	.	16b\JJ	.	.	.	.	.	.	.
8G\L	.	.	.	.	.	.	.	.	.	16g/LL	.	16b\LL	.	.	.	.	.	.	.
.	.	.	.	.	.	.	.	.	.	16g/	.	16b\	.	.	.	.	.	.	.
8D\J	.	8D\	e-	8f#X/	elei-	da	8d/	elei-	da	16f#X/	.	16a\	.	.	.	.	.	.	.
.	.	.	.	.	.	.	.	.	.	16g/JJ	.	16b\JJ	.	.	.	.	.	.	.
=65	=65	=65	=65	=65	=65	=65	=65	=65	=65	=65	=65	=65	=65	=65	=65	=65	=65	=65	=65
!	!	!	!	!	!	!	!	!	!	!	!	!	!LO:DY:t=fortis	!LO:TX:a:t=problem:brakujące puste takty	!	!LO:TX:a:t=problem:brakujące puste takty	!	!	!
8r	.	8D\L	-lei-	8a\	-ſon	pa-	8cc\	-son	pa-	16a\LL	ff	16cc\LL	ff	2ryy	.	2ryy	.	2ryy	2ryy
.	.	.	.	.	.	.	.	.	.	16cc\	.	16aa\	.	.	.	.	.	.	.
8D\L	.	8F#X\J	-son	4a\	.	-cem	4cc\	.	-cem	16cc\	.	16aa\	.	.	.	.	.	.	.
.	.	.	.	.	.	.	.	.	.	16a\JJ	.	16cc\JJ	.	.	.	.	.	.	.
8F#X\	.	8G\	.	.	.	.	.	.	.	16a/LL	.	16cc\LL	.	.	.	.	.	.	.
.	.	.	.	.	.	.	.	.	.	16cc/	.	16aa\	.	.	.	.	.	.	.
8G\J	.	8G\	e-	8g\	e-	da	8b\	e-	da	16g/	.	16b\	.	.	.	.	.	.	.
.	.	.	.	.	.	.	.	.	.	16b/JJ	.	16gg\JJ	.	.	.	.	.	.	.
=66	=66	=66	=66	=66	=66	=66	=66	=66	=66	=66	=66	=66	=66	=66	=66	=66	=66	=66	=66
.	.	.	.	.	.	.	8qqcc/	.	.	.	.	.	.	.	.	.	.	.	.
8D/L	.	8D\	-lei-	8g/	-lei-	pa-	8b\	-lei-	pa-	8f#X/L	.	16a\LL	.	2ryy	.	2ryy	.	2ryy	2ryy
.	.	.	.	.	.	.	.	.	.	.	.	16dd\	.	.	.	.	.	.	.
16AA/L	.	8D\	-son	8f#X/	-ſon	-cem	8a\	-ſon	-cem	16f#/L	.	16a\	.	.	.	.	.	.	.
16D/JJ	.	.	.	.	.	.	.	.	.	16f#/JJ	.	16f#X\JJ	.	.	.	.	.	.	.
4DD/	.	4r	.	4r	.	.	4r	.	.	4f#/	.	4d/	.	.	.	.	.	.	.
=67	=67	=67	=67	=67	=67	=67	=67	=67	=67	=67	=67	=67	=67	=67	=67	=67	=67	=67	=67
!	!	!LO:N:vis=0	!	!LO:N:vis=0	!	!	!	!	!	!LO:N:vis=0	!	!LO:TX:a:t=problem:mixed beam	!LO:DY:t=pi	!	!	!	!	!	!
8r	p	1r	.	1r	.	.	2d/	Chri-	do-	1r	.	8dd`\L	p	2ryy	.	2ryy	.	2ryy	2ryy
!LO:TX:a:t=problem:mixed beam	!	!	!	!	!	!	!	!	!	!	!	!	!	!	!	!	!	!	!
8D\L	.	.	.	.	.	.	.	.	.	.	.	8d'/	.	.	.	.	.	.	.
8DD/	.	.	.	.	.	.	.	.	.	.	.	8d'/	.	.	.	.	.	.	.
8D\J	.	.	.	.	.	.	.	.	.	.	.	8d'/J	.	.	.	.	.	.	.
=68	=68	=68	=68	=68	=68	=68	=68	=68	=68	=68	=68	=68	=68	=68	=68	=68	=68	=68	=68
!	!	!	!	!	!	!	!	!	!	!	!	!LO:TX:a:t=problem:mixed beam	!	!	!	!	!	!	!
8r	.	.	.	.	.	.	2e/	-ste	-na	.	.	8dd`\L	.	2ryy	.	2ryy	.	2ryy	2ryy
8C#X/L	.	.	.	.	.	.	.	.	.	.	.	8e'/	.	.	.	.	.	.	.
8C#/	.	.	.	.	.	.	.	.	.	.	.	8e'/	.	.	.	.	.	.	.
8C#/J	.	.	.	.	.	.	.	.	.	.	.	8e'/J	.	.	.	.	.	.	.
=69	=69	=69	=69	=69	=69	=69	=69	=69	=69	=69	=69	=69	=69	=69	=69	=69	=69	=69	=69
!	!	!LO:LB:g=original	!	!	!	!	!	!	!	!	!	!	!	!	!	!	!	!	!
.	.	.	.	.	.	.	8qqg/	.	.	.	.	.	.	.	.	.	.	.	.
!	!	!	!	!	!	!	!	!	!	!	!	!LO:TX:a:t=problem:mixed beam	!	!	!	!	!	!	!
8r	.	2Cn/	Chri-	2a\	Chri-	no-	2f#X/	Chri-	no-	16r	f	16`dd\LL	.	2ryy	.	2ryy	.	2ryy	2ryy
*	*	*	*	*	*	*	*	*	*	*	*	*^	*	*	*	*	*	*	*
.	.	.	.	.	.	.	.	.	.	16a/LL	.	16a/	16f#X\LL	.	.	.	.	.	.	.
!	!LO:DY:t=fo	!	!	!	!	!	!	!	!	!	!	!	!	!	!	!	!	!	!	!
8Cn/L	f	.	.	.	.	.	.	.	.	16a/	.	16a/	16f#\	.	.	.	.	.	.	.
.	.	.	.	.	.	.	.	.	.	16a/JJ	.	16a/JJ	16f#\JJ	.	.	.	.	.	.	.
8C/	.	.	.	.	.	.	.	.	.	16a/LL	.	16a/LL	16f#\LL	.	.	.	.	.	.	.
.	.	.	.	.	.	.	.	.	.	16a/	.	16a/	16f#\	.	.	.	.	.	.	.
8C/J	.	.	.	.	.	.	.	.	.	16a/	.	16a/	16f#\	.	.	.	.	.	.	.
.	.	.	.	.	.	.	.	.	.	16a/JJ	.	16a/JJ	16f#\JJ	.	.	.	.	.	.	.
*	*	*	*	*	*	*	*	*	*	*	*	*v	*v	*	*	*	*	*	*	*
=70	=70	=70	=70	=70	=70	=70	=70	=70	=70	=70	=70	=70	=70	=70	=70	=70	=70	=70	=70
4BB/	.	4.BB/	-ste	4.g\	-ste	-biſ	4.g/	-ste	-biſ	16b/LL	.	16`dd\LL	.	2ryy	.	2ryy	.	2ryy	2ryy
.	.	.	.	.	.	.	.	.	.	16g/	.	16b\	.	.	.	.	.	.	.
.	.	.	.	.	.	.	.	.	.	16g/	.	16b\	.	.	.	.	.	.	.
.	.	.	.	.	.	.	.	.	.	16g/JJ	.	16b\JJ	.	.	.	.	.	.	.
8GG/L	.	.	.	.	.	.	.	.	.	16g/LL	.	16b\LL	.	.	.	.	.	.	.
.	.	.	.	.	.	.	.	.	.	16g/	.	16b\	.	.	.	.	.	.	.
8D/J	.	8D\	elei-	8f#X/	e-	da	8d/	e-	da	16f/	.	16a\	.	.	.	.	.	.	.
.	.	.	.	.	.	.	.	.	.	16g/JJ	.	16b\JJ	.	.	.	.	.	.	.
=71	=71	=71	=71	=71	=71	=71	=71	=71	=71	=71	=71	=71	=71	=71	=71	=71	=71	=71	=71
!	!	!	!	!	!	!	!	!	!	!	!	!	!LO:DY:t=fo	!	!	!	!	!	!
8r	.	8D\L	.	8a\	-lei-	pa-	8cc\	-lei-	pa-	16a/LL	f	16cc\LL	f	4r	.	4r	.	2ryy	2ryy
.	.	.	.	.	.	.	.	.	.	16cc/	.	16aa\	.	.	.	.	.	.	.
8D\L	.	8F#X\J	-son	4a\	-ſon	-cem	4cc\	-ſon	-cem	16cc/	.	16aa\	.	.	.	.	.	.	.
.	.	.	.	.	.	.	.	.	.	16a/JJ	.	16cc\JJ	.	.	.	.	.	.	.
8F#X\	.	8G\	.	.	.	.	.	.	.	16a/LL	.	16cc\LL	.	8r	.	8r	.	.	.
.	.	.	.	.	.	.	.	.	.	16cc/	.	16aa\	.	.	.	.	.	.	.
8G\J	.	8G\	e-	8g\	e-	.da	8b\	elei-	da	16g/	.	16b\	.	8dd\	.	8dd\	.	.	.
.	.	.	.	.	.	.	.	.	.	16b/JJ	.	16gg\JJ	.	.	.	.	.	.	.
=72	=72	=72	=72	=72	=72	=72	=72	=72	=72	=72	=72	=72	=72	=72	=72	=72	=72	=72	=72
!	!	!	!	!	!	!	!	!	!	!LO:LB:g=original	!	!LO:LB:g=original	!	!	!	!	!	!	!
.	.	.	.	.	.	.	8qqcc/	.	.	8qqg/	.	.	.	.	.	.	.	.	.
8D/L	.	8D/	-lei-	8g/	-lei-	pa-	8b\	-ſon	pa-	8f#X/L	.	16a\LL	.	8dd\L	.	8dd\L	.	2ryy	2ryy
.	.	.	.	.	.	.	.	.	.	.	.	16dd\	.	.	.	.	.	.	.
16AA/L	.	8D/	-son	8f#X/	-ſon	-cem	8a\	.	-cem	16f#/L	.	16a\	.	8dd\J	.	8dd\J	.	.	.
16D/JJ	.	.	.	.	.	.	.	.	.	16f#/JJ	.	16f#X\JJ	.	.	.	.	.	.	.
4DD/	.	4r	.	4r	.	.	4r	.	.	4f#/	.	8d/L	.	4dd\	.	4dd\	.	.	.
.	.	.	.	.	.	.	.	.	.	.	.	8a/J	.	.	.	.	.	.	.
=73	=73	=73	=73	=73	=73	=73	=73	=73	=73	=73	=73	=73	=73	=73	=73	=73	=73	=73	=73
!	!	!	!	!	!	!	!	!	!	!	!	!	!LO:DY:t=fo	!	!	!	!	!	!
8D\L	f	4D\	Chri-	4.a\	Chri-	do	4.cc\	Chri-	do-	16a/LL	ff	16cc\LL	f	2dd\	.	2dd\	.	2ryy	2ryy
.	.	.	.	.	.	.	.	.	.	16cc/	.	16ff#X\	.	.	.	.	.	.	.
8A\	.	.	.	.	.	.	.	.	.	16a/	.	16aa\	.	.	.	.	.	.	.
.	.	.	.	.	.	.	.	.	.	16cc/JJ	.	16gg\JJ	.	.	.	.	.	.	.
8F#X\	.	8F#X\L	.	.	.	.	.	.	.	16a/LL	.	16ff#\LL	.	.	.	.	.	.	.
.	.	.	.	.	.	.	.	.	.	16cc/	.	16ee\	.	.	.	.	.	.	.
8D\J	.	8D\J	-ste	16cc\LL	.	.	16ee\LL	.	.	16a/	.	16dd\	.	.	.	.	.	.	.
.	.	.	.	16a\JJ	.	.	16cc\JJ	ste	-na	16cc/JJ	.	16cc\JJ	.	.	.	.	.	.	.
=74	=74	=74	=74	=74	=74	=74	=74	=74	=74	=74	=74	=74	=74	=74	=74	=74	=74	=74	=74
.	.	.	.	.	.	.	8qqcc/	.	.	.	.	.	.	.	.	.	.	.	.
8G\L	.	2G\	.	2g\	-ste	-na	2b\	.	.	16g/LL	.	16b\LL	.	4g/	.	4dd\	.	2ryy	2ryy
.	.	.	.	.	.	.	.	.	.	16b/	.	16gg\	.	.	.	.	.	.	.
8D\J	.	.	.	.	.	.	.	.	.	16a/	.	16ff#X\	.	.	.	.	.	.	.
.	.	.	.	.	.	.	.	.	.	16b/JJ	.	16gg\JJ	.	.	.	.	.	.	.
8BB/L	.	.	.	.	.	.	.	.	.	16a/LL	.	16ff#\LL	.	4r	.	4r	.	.	.
.	.	.	.	.	.	.	.	.	.	16b/	.	16gg\	.	.	.	.	.	.	.
8GG/J	.	.	.	.	.	.	.	.	.	16a/	.	16ff#\	.	.	.	.	.	.	.
.	.	.	.	.	.	.	.	.	.	16b/JJ	.	16gg\JJ	.	.	.	.	.	.	.
=75	=75	=75	=75	=75	=75	=75	=75	=75	=75	=75	=75	=75	=75	=75	=75	=75	=75	=75	=75
!LO:LB:g=original	!	!	!	!LO:LB:g=original	!	!	!	!	!	!	!	!	!	!	!	!	!	!	!
.	.	.	.	.	.	.	8qqdd/	.	.	.	.	.	.	.	.	.	.	.	.
8D\L	.	4D\	Chri-	4.a\	Chri-	no-	4.cc\	Chri-	no-	16a/LL	.	16.cc\LL	.	2dd\	.	2dd\	.	2ryy	2ryy
.	.	.	.	.	.	.	.	.	.	16cc/	.	.	.	.	.	.	.	.	.
.	.	.	.	.	.	.	.	.	.	.	.	32ff#X\K	.	.	.	.	.	.	.
8A\	.	.	.	.	.	.	.	.	.	16a/	.	16.aa\	.	.	.	.	.	.	.
.	.	.	.	.	.	.	.	.	.	16cc/JJ	.	.	.	.	.	.	.	.	.
.	.	.	.	.	.	.	.	.	.	.	.	32gg\JJk	.	.	.	.	.	.	.
8F#X\	.	8E\L	.	.	.	.	.	.	.	16a/LL	.	16.ff#\LL	.	.	.	.	.	.	.
.	.	.	.	.	.	.	.	.	.	16cc/	.	.	.	.	.	.	.	.	.
.	.	.	.	.	.	.	.	.	.	.	.	32ee\K	.	.	.	.	.	.	.
8D\J	.	8F#X\J	-ste	16cc\LL	.	.	16ee\LL	.	.	16a/	.	16.dd\	.	.	.	.	.	.	.
.	.	.	.	16a\JJ	.	.	16cc\JJ	ste	-biſ	16a/JJ	.	.	.	.	.	.	.	.	.
.	.	.	.	.	.	.	.	.	.	.	.	32cc\JJk	.	.	.	.	.	.	.
=76	=76	=76	=76	=76	=76	=76	=76	=76	=76	=76	=76	=76	=76	=76	=76	=76	=76	=76	=76
8G\L	.	4.G\	.	4.g\	-ste	-biſ	4.b\	.	.	16g/LL	.	16b\LL	.	4g/	.	4dd\	.	2ryy	2ryy
.	.	.	.	.	.	.	.	.	.	16b/	.	16gg\	.	.	.	.	.	.	.
8D\J	.	.	.	.	.	.	.	.	.	16a/	.	16ff#X\	.	.	.	.	.	.	.
.	.	.	.	.	.	.	.	.	.	16b/JJ	.	16gg\JJ	.	.	.	.	.	.	.
8BB/L	.	.	.	.	.	.	.	.	.	16a/LL	.	16ff#\LL	.	4r	.	4r	.	.	.
.	.	.	.	.	.	.	.	.	.	16b/	.	16gg\	.	.	.	.	.	.	.
8GG/J	.	8G\	elei-	8b\	e-	pa-	8gg/	e-	pa-	16a/	.	16ff#\	.	.	.	.	.	.	.
.	.	.	.	.	.	.	.	.	.	16b/JJ	.	16gg\JJ	.	.	.	.	.	.	.
=77	=77	=77	=77	=77	=77	=77	=77	=77	=77	=77	=77	=77	=77	=77	=77	=77	=77	=77	=77
!	!	!	!	!	!	!	!LO:LB:g=original	!	!	!	!	!	!	!	!	!	!	!	!
8r	.	4c\	.	2cc\	-lei-	.	2ee\	-lei-	.	16cc\LL	.	16ee\LL	.	2cc\	.	2ee\	.	2ryy	2ryy
.	.	.	.	.	.	.	.	.	.	16ee\	.	16ccc\	.	.	.	.	.	.	.
!LO:TX:a:t=problem:mixed beam	!	!	!	!	!	!	!	!	!	!	!	!	!	!	!	!	!	!	!
8C/L	.	.	.	.	.	.	.	.	.	16ee\	.	16ccc\	.	.	.	.	.	.	.
.	.	.	.	.	.	.	.	.	.	16cc\JJ	.	16ee\JJ	.	.	.	.	.	.	.
8c\	.	8E\L	.	.	.	.	.	.	.	16cc\LL	.	16ee\LL	.	.	.	.	.	.	.
.	.	.	.	.	.	.	.	.	.	16ee\	.	16ccc\	.	.	.	.	.	.	.
8C/J	.	8C\J	.	.	.	.	.	.	.	16ee\	.	16ccc\	.	.	.	.	.	.	.
.	.	.	.	.	.	.	.	.	.	16cc\JJ	.	16ee\JJ	.	.	.	.	.	.	.
=78	=78	=78	=78	=78	=78	=78	=78	=78	=78	=78	=78	=78	=78	=78	=78	=78	=78	=78	=78
8r	.	4G\	.	2b\	.	.	2dd\	.	.	16b\LL	.	16dd\LL	.	2g/	.	2dd\	.	2ryy	2ryy
.	.	.	.	.	.	.	.	.	.	16dd\	.	16bb\	.	.	.	.	.	.	.
8G\L	.	.	.	.	.	.	.	.	.	16dd\	.	16bb\	.	.	.	.	.	.	.
.	.	.	.	.	.	.	.	.	.	16b\JJ	.	16dd\JJ	.	.	.	.	.	.	.
8B\	.	8B\L	.	.	.	.	.	.	.	16b\LL	.	16dd\LL	.	.	.	.	.	.	.
.	.	.	.	.	.	.	.	.	.	16dd\	.	16bb\	.	.	.	.	.	.	.
8G\J	.	8G\J	.	.	.	.	.	.	.	16dd\	.	16bb\	.	.	.	.	.	.	.
.	.	.	.	.	.	.	.	.	.	16b\JJ	.	16dd\JJ	.	.	.	.	.	.	.
=79	=79	=79	=79	=79	=79	=79	=79	=79	=79	=79	=79	=79	=79	=79	=79	=79	=79	=79	=79
8D\L	.	4A\	.	4a\	.	.	4cc\	.	.	16a/LL	.	16cc\LL	.	2r	.	2r	.	2ryy	2ryy
.	.	.	.	.	.	.	.	.	.	16cc/	.	16aa\	.	.	.	.	.	.	.
8A\	.	.	.	.	.	.	.	.	.	16cc/	.	16aa\	.	.	.	.	.	.	.
.	.	.	.	.	.	.	.	.	.	16a/JJ	.	16cc\JJ	.	.	.	.	.	.	.
8F#X\	.	8F#X\L	.	8cc\L	.	.	8aa\L	.	.	16a/LL	.	16cc\LL	.	.	.	.	.	.	.
.	.	.	.	.	.	.	.	.	.	16cc/	.	16aa\	.	.	.	.	.	.	.
8D\J	.	8D\J	.	8a\J	.	.	8cc\J	.	.	16cc/	.	16aa\	.	.	.	.	.	.	.
.	.	.	.	.	.	.	.	.	.	16a/JJ	.	16cc\JJ	.	.	.	.	.	.	.
=80	=80	=80	=80	=80	=80	=80	=80	=80	=80	=80	=80	=80	=80	=80	=80	=80	=80	=80	=80
!	!	!	!	!	!	!	!	!	!	!	!	!	!	!	!	!LO:LB:g=original	!	!	!
4G\	.	8G\L	.	16g\LL	.	.	16b\LL	.	.	16g/LL	.	16b\LL	.	8g/	.	8dd\	.	2ryy	2ryy
.	.	.	.	16b\	.	.	16dd\	.	.	16b/	.	16dd\	.	.	.	.	.	.	.
.	.	8A\J	.	16cc\	.	.	16ee\	.	.	16cc/	.	16ee\	.	8r	.	8r	.	.	.
.	.	.	.	16a\JJ	.	.	16ff#X\JJ	son	-cem	16a/JJ	.	16ff#X\JJ	.	.	.	.	.	.	.
8r	.	8B\	-son	8b\	-son	-cem	8gg\L	.	.	16b/LL	.	16gg\LL	.	8r	.	8r	.	.	.
.	.	.	.	.	.	.	.	.	.	16cc/	.	16ee\	.	.	.	.	.	.	.
8C/	.	8c\	e-	8a\	e-	da	8cc\J	e-	da	16b/	.	16dd\	.	8dd\	.	8dd\	.	.	.
.	.	.	.	.	.	.	.	.	.	16a/JJ	.	16cc\JJ	.	.	.	.	.	.	.
=81	=81	=81	=81	=81	=81	=81	=81	=81	=81	=81	=81	=81	=81	=81	=81	=81	=81	=81	=81
!	!	!LO:LB:g=original	!	!	!	!	!	!	!	!LO:LB:g=original	!	!LO:LB:g=original	!	!	!	!	!	!	!
.	.	.	.	.	.	.	8qqcc/	-lei-	pa-	.	.	.	.	.	.	.	.	.	.
8D/L	.	4.d\	-le-	4g/	-lei-	pa-	8b\L	.	.	16g/LL	.	16b\LL	.	4dd\	.	4dd\	.	2ryy	2ryy
.	.	.	.	.	.	.	.	.	.	16b/JJ	.	16gg\JJ	.	.	.	.	.	.	.
8C/	.	.	.	.	.	.	16a\L	.	.	24cc/LL	.	(24ee\LL	.	.	.	.	.	.	.
.	.	.	.	.	.	.	.	.	.	24b/	.	24dd\	.	.	.	.	.	.	.
.	.	.	.	.	.	.	16g\JJ	.	.	.	.	.	.	.	.	.	.	.	.
.	.	.	.	.	.	.	.	.	.	24a/JJ	.	24cc\JJ)	.	.	.	.	.	.	.
.	.	.	.	.	.	.	8qqb/	.	.	.	.	.	.	.	.	.	.	.	.
8D/	.	.	.	4f#X/	.	.	4a\	.	.	8g/L	.	8b/L	.	4dd\	.	4dd\	.	.	.
8DD/J	.	8D\	i-	.	.	.	.	.	.	8f#X/J	.	8a/J	.	.	.	.	.	.	.
=82	=82	=82	=82	=82	=82	=82	=82	=82	=82	=82	=82	=82	=82	=82	=82	=82	=82	=82	=82
!LO:TX:a:t=problem:mixed beam	!	!	!	!	!	!	!	!	!	!	!	!	!	!	!	!	!	!	!
8.GG/L	.	4G\	-son	4g/	-son	-cem	4g\	-son	-cem	4g/	.	4G/ 4d 4b 4gg	.	4g/	.	4dd\	.	2ryy	2ryy
16A\Jk	.	.	.	.	.	.	.	.	.	.	.	.	.	.	.	.	.	.	.
16G\LL	.	4r	.	4r	.	.	4r	.	.	4r	.	4r	.	4r	.	4r	.	.	.
16Fn\	.	.	.	.	.	.	.	.	.	.	.	.	.	.	.	.	.	.	.
16E\	.	.	.	.	.	.	.	.	.	.	.	.	.	.	.	.	.	.	.
16D\JJ	.	.	.	.	.	.	.	.	.	.	.	.	.	.	.	.	.	.	.
=83	=83	=83	=83	=83	=83	=83	=83	=83	=83	=83	=83	=83	=83	=83	=83	=83	=83	=83	=83
!	!LO:DY:t=fo	!	!	!	!	!	!	!	!	!	!	!	!	!	!	!	!	!	!
4C/	f	4c\	Ky-	4cc\	Ky-	do-	4ee\	Ky-	do-	4ee\	f	4ccc\	f	4cc\	.	4ee\	.	2ryy	2ryy
4G\	.	4G\	-rie	4b\	-rie	-na	4dd\	-rie	-na	4dd\	.	4bb\	.	4g\	.	4dd\	.	.	.
=84	=84	=84	=84	=84	=84	=84	=84	=84	=84	=84	=84	=84	=84	=84	=84	=84	=84	=84	=84
4C/	.	4C/	.	4cc\	.	nobiſ	4ee\	.	nobiſ	16ee\LL	.	16ccc\LL	.	4cc\	.	4ee\	.	2ryy	2ryy
.	.	.	.	.	.	.	.	.	.	16cc\	.	16cc\	.	.	.	.	.	.	.
.	.	.	.	.	.	.	.	.	.	16dd\	.	16dd\	.	.	.	.	.	.	.
.	.	.	.	.	.	.	.	.	.	16ee\JJ	.	16ee\JJ	.	.	.	.	.	.	.
4r	.	4r	.	4r	.	.	4r	.	.	16ff\LL	.	16ff\LL	.	4r	.	4r	.	.	.
.	.	.	.	.	.	.	.	.	.	16ee\	.	16gg\	.	.	.	.	.	.	.
.	.	.	.	.	.	.	.	.	.	16ff\	.	16aa\	.	.	.	.	.	.	.
.	.	.	.	.	.	.	.	.	.	16dd\JJ	.	16bb\JJ	.	.	.	.	.	.	.
=85	=85	=85	=85	=85	=85	=85	=85	=85	=85	=85	=85	=85	=85	=85	=85	=85	=85	=85	=85
!	!	!	!	!	!	!	!	!	!	!	!	!	!	!LO:LB:g=original	!	!	!	!	!
4c\	.	4c\	Ky-	4cc\	Ky-	do	4ee\	Ky-	do-	8ee\L	.	8ccc\L	.	4cc\	.	4ee\	.	2ryy	2ryy
.	.	.	.	.	.	.	.	.	.	8ee\J	.	8ccc\	.	.	.	.	.	.	.
4G\	.	4G\	-rie	4b\	-rie	na	4dd\	-rie	-na	8dd\L	.	8bb\	.	4g\	.	4dd\	.	.	.
.	.	.	.	.	.	.	.	.	.	16dd\L	.	8bb\J	.	.	.	.	.	.	.
.	.	.	.	.	.	.	.	.	.	16ff\JJ	.	.	.	.	.	.	.	.	.
=86	=86	=86	=86	=86	=86	=86	=86	=86	=86	=86	=86	=86	=86	=86	=86	=86	=86	=86	=86
4C/	.	4C/	.	4cc\	.	nobiſ	4ee\	.	nobiſ	16ee\LL	.	16ccc\LL	.	4cc\	.	4ee\	.	2ryy	2ryy
.	.	.	.	.	.	.	.	.	.	16cc\	.	16ee\	.	.	.	.	.	.	.
.	.	.	.	.	.	.	.	.	.	16dd\	.	16ff\	.	.	.	.	.	.	.
.	.	.	.	.	.	.	.	.	.	16ee\JJ	.	16gg\JJ	.	.	.	.	.	.	.
8r	.	4r	.	4r	.	.	4r	.	.	16ff\LL	.	16aa\LL	.	4r	.	4r	.	.	.
.	.	.	.	.	.	.	.	.	.	16ee\	.	16gg\	.	.	.	.	.	.	.
8GG/	.	.	.	.	.	.	.	.	.	16ff\	.	16aa\	.	.	.	.	.	.	.
.	.	.	.	.	.	.	.	.	.	16dd\JJ	.	16bb\JJ	.	.	.	.	.	.	.
=87	=87	=87	=87	=87	=87	=87	=87	=87	=87	=87	=87	=87	=87	=87	=87	=87	=87	=87	=87
8C/L	.	8C/	Ky-	8g/	Ky-	do-	4.cc\	Ky-	do-	16ee\LL	.	16ccc\LL	.	4.c/	.	4.cc\	.	2ryy	2ryy
.	.	.	.	.	.	.	.	.	.	16ee\	.	16gg\	.	.	.	.	.	.	.
8D/	.	8D/	-rie	8g/	-ri-	-na	.	.	.	16ee\	.	16gg\	.	.	.	.	.	.	.
.	.	.	.	.	.	.	.	.	.	16ee\JJ	.	16gg\JJ	.	.	.	.	.	.	.
8E/	.	8E/	.	8g/	-e	no-	.	.	.	16ee\LL	.	16gg\LL	.	.	.	.	.	.	.
.	.	.	.	.	.	.	.	.	.	16ee\	.	16gg\	.	.	.	.	.	.	.
8C/J	.	8C/	e-	8g/	e-	-biſ	8cc\	-rie	-na	16ee\	.	16gg\	.	8c/	.	8cc\	.	.	.
.	.	.	.	.	.	.	.	.	.	16ee\JJ	.	16gg\JJ	.	.	.	.	.	.	.
=88	=88	=88	=88	=88	=88	=88	=88	=88	=88	=88	=88	=88	=88	=88	=88	=88	=88	=88	=88
!	!	!	!	!LO:LB:g=original	!	!	!	!	!	!	!	!	!	!	!	!	!	!	!
8F\L	.	8F\L	-lei-	4a/	leiſon	pa-	4cc\	.	no-	16ff\LL	.	16aa\LL	.	4c/	.	4cc\	.	2ryy	2ryy
.	.	.	.	.	.	.	.	.	.	16cc\	.	16aa\	.	.	.	.	.	.	.
8G\	.	8G\J	.	.	.	.	.	.	.	16ff\	.	16aa\	.	.	.	.	.	.	.
.	.	.	.	.	.	.	.	.	.	16cc\JJ	.	16aa\JJ	.	.	.	.	.	.	.
8A\	.	8A\L	.	8f/L	.	.	4cc\	elei-	-biſ	16ff\LL	.	16aa\LL	.	4c/	.	4cc\	.	.	.
.	.	.	.	.	.	.	.	.	.	16cc\	.	16aa\	.	.	.	.	.	.	.
8F\J	.	8F\J	.	8a/J	e-	.	.	.	.	16ff\	.	16aa\	.	.	.	.	.	.	.
.	.	.	.	.	.	.	.	.	.	16cc\JJ	.	16aa\JJ	.	.	.	.	.	.	.
=89	=89	=89	=89	=89	=89	=89	=89	=89	=89	=89	=89	=89	=89	=89	=89	=89	=89	=89	=89
8C/L	.	8C/L	.	4.g\	-lei-	.	2cc\	-ſon	pa-	16ee\LL	.	16gg\LL	.	2c/	.	2cc\	.	2ryy	2ryy
.	.	.	.	.	.	.	.	.	.	16ee\	.	16gg\	.	.	.	.	.	.	.
8D/	.	8D/J	.	.	.	.	.	.	.	16ee\	.	16gg\	.	.	.	.	.	.	.
.	.	.	.	.	.	.	.	.	.	16ee\JJ	.	16gg\JJ	.	.	.	.	.	.	.
8E/	.	8E/L	.	.	.	.	.	.	.	16ee\LL	.	16gg\LL	.	.	.	.	.	.	.
.	.	.	.	.	.	.	.	.	.	16ee\	.	16gg\	.	.	.	.	.	.	.
8C/J	.	8C/J	.	8b-X\	.	.	.	.	.	16ee\	.	16gg\	.	.	.	.	.	.	.
.	.	.	.	.	.	.	.	.	.	16gg\JJ	.	16bb-X\JJ	.	.	.	.	.	.	.
=90	=90	=90	=90	=90	=90	=90	=90	=90	=90	=90	=90	=90	=90	=90	=90	=90	=90	=90	=90
8F\L	.	4F\	-son	4a\	-son	-cem	4cc\	.	-cem	16ff\LL	.	16aa\LL	.	4c/	.	4cc\	.	2ryy	2ryy
.	.	.	.	.	.	.	.	.	.	16cc\	.	16ff\	.	.	.	.	.	.	.
8C\J	.	.	.	.	.	.	.	.	.	16a\	.	16cc\	.	.	.	.	.	.	.
.	.	.	.	.	.	.	.	.	.	16g\JJ	.	16b-X\JJ	.	.	.	.	.	.	.
4FF/	.	4r	.	4r	.	.	4r	.	.	8f/L	.	8a/L	.	4r	.	4r	.	.	.
.	.	.	.	.	.	.	.	.	.	8f/J	.	8a/J	.	.	.	.	.	.	.
=91	=91	=91	=91	=91	=91	=91	=91	=91	=91	=91	=91	=91	=91	=91	=91	=91	=91	=91	=91
!LO:LB:g=original	!	!	!	!	!	!	!	!	!	!	!	!	!	!	!	!	!	!	!
8D\L	.	8D\	Ky-	8a\	Ky-	do-	4.dd\	Ky-	do-	16dd\LL	.	16ff#X\LL	.	4.dd\	.	4.dd\	.	2ryy	2ryy
.	.	.	.	.	.	.	.	.	.	16ff#X\	.	16aa\	.	.	.	.	.	.	.
8E\	.	8E\	-rie	8a\	-ri-	-na	.	.	.	16ff#\	.	16aa\	.	.	.	.	.	.	.
.	.	.	.	.	.	.	.	.	.	16ff#\JJ	.	16aa\JJ	.	.	.	.	.	.	.
8F#X\	.	8F#X\	.	8a\	-e	no-	.	.	.	16ff#\LL	.	16aa\LL	.	.	.	.	.	.	.
.	.	.	.	.	.	.	.	.	.	16ff#\	.	16aa\	.	.	.	.	.	.	.
8D\J	.	8D\	e-	8a\	e-	-biſ	8dd\	-rie	-na	16ff#\	.	16aa\	.	8dd\	.	8dd\	.	.	.
.	.	.	.	.	.	.	.	.	.	16ff#\JJ	.	16aa\JJ	.	.	.	.	.	.	.
=92	=92	=92	=92	=92	=92	=92	=92	=92	=92	=92	=92	=92	=92	=92	=92	=92	=92	=92	=92
!	!	!LO:LB:g=original	!	!	!	!	!	!	!	!LO:LB:g=original	!	!LO:LB:g=original	!	!	!	!	!	!	!
8G\L	.	8G\L	-lei-	4b\	-lei-	pa-	4dd\	e-	no-	16gg\LL	.	16gg\LL	.	4g/	.	4dd\	.	2ryy	2ryy
.	.	.	.	.	.	.	.	.	.	16gg\	.	16bb\	.	.	.	.	.	.	.
8A\	.	8A\J	.	.	.	.	.	.	.	16gg\	.	16bb\	.	.	.	.	.	.	.
.	.	.	.	.	.	.	.	.	.	16gg\JJ	.	16bb\JJ	.	.	.	.	.	.	.
8Bn\	.	8B\L	.	8g\	-ſon	cem	4dd\	-lei-	-biſ	16gg\LL	.	16bb\LL	.	4g/	.	4dd\	.	.	.
.	.	.	.	.	.	.	.	.	.	16bn\	.	16gg\	.	.	.	.	.	.	.
8G\J	.	8G\J	.	8b\	e-	da	.	.	.	16gg\	.	16bb\	.	.	.	.	.	.	.
.	.	.	.	.	.	.	.	.	.	16b\JJ	.	16gg\JJ	.	.	.	.	.	.	.
=93	=93	=93	=93	=93	=93	=93	=93	=93	=93	=93	=93	=93	=93	=93	=93	=93	=93	=93	=93
!	!	!LO:TX:a:t=problem:mixed beam	!	!	!	!	!	!	!	!	!	!	!	!	!	!	!	!	!
8D\L	.	8d\L	.	2a\	lei-	pa-	2dd\	-son	pa-	16a\LL	.	16ff#X\LL	.	2dd\	.	2dd\	.	2ryy	2ryy
.	.	.	.	.	.	.	.	.	.	16cc\	.	16aa\	.	.	.	.	.	.	.
8E\	.	8D/J	.	.	.	.	.	.	.	16a\	.	16ff#\	.	.	.	.	.	.	.
.	.	.	.	.	.	.	.	.	.	16cc\JJ	.	16aa\JJ	.	.	.	.	.	.	.
8F#X\	.	8F#X\L	.	.	.	.	.	.	.	16a\LL	.	16ff#\LL	.	.	.	.	.	.	.
.	.	.	.	.	.	.	.	.	.	16cc\	.	16aa\	.	.	.	.	.	.	.
8D\J	.	8D\J	.	.	.	.	.	.	.	16a\	.	16ff#\	.	.	.	.	.	.	.
.	.	.	.	.	.	.	.	.	.	16cc\JJ	.	16aa\JJ	.	.	.	.	.	.	.
=94	=94	=94	=94	=94	=94	=94	=94	=94	=94	=94	=94	=94	=94	=94	=94	=94	=94	=94	=94
8G\L	.	4G\	-son	4b\	-ſon	-cem	4dd\	.	-cem	16b/LL	.	16gg\LL	.	4g/	.	4dd\	.	2ryy	2ryy
.	.	.	.	.	.	.	.	.	.	16cc/	.	16ee\	.	.	.	.	.	.	.
8D\J	.	.	.	.	.	.	.	.	.	16b/	.	16dd\	.	.	.	.	.	.	.
.	.	.	.	.	.	.	.	.	.	16a/JJ	.	16cc\JJ	.	.	.	.	.	.	.
4GG/	.	4r	.	4r	.	.	4r	.	.	8g/L	.	8b\L	.	4r	.	4r	.	.	.
.	.	.	.	.	.	.	.	.	.	8b/J	.	8gg\J	.	.	.	.	.	.	.
=95	=95	=95	=95	=95	=95	=95	=95	=95	=95	=95	=95	=95	=95	=95	=95	=95	=95	=95	=95
!	!	!	!	!	!	!	!LO:LB:g=original	!	!	!	!	!	!	!	!	!	!	!	!
.	.	.	.	.	.	.	8qqcc/	.	.	.	.	.	.	.	.	.	.	.	.
!LO:TX:a:t=problem:mixed beam	!	!	!	!	!	!	!	!	!	!	!	!	!	!	!	!	!	!	!
8GG/L	.	4.G\	Ky-	4.d/	Ky-	do-	4.b\	Ky-	do-	16b\LL	.	16dd\LL	.	4.g/	.	4.dd\	.	2ryy	2ryy
.	.	.	.	.	.	.	.	.	.	16dd\	.	16ffn\	.	.	.	.	.	.	.
8G\	.	.	.	.	.	.	.	.	.	16b\	.	16dd\	.	.	.	.	.	.	.
.	.	.	.	.	.	.	.	.	.	16dd\JJ	.	16ff\JJ	.	.	.	.	.	.	.
8Fn\	.	.	.	.	.	.	.	.	.	16b\LL	.	16dd\LL	.	.	.	.	.	.	.
.	.	.	.	.	.	.	.	.	.	16dd\	.	16ff\	.	.	.	.	.	.	.
8F\J	.	8F\	-rie	8d/	-rie	-na	8b\	-rie	-na	16b\	.	16dd\	.	8g/	.	8dd\	.	.	.
.	.	.	.	.	.	.	.	.	.	16dd\JJ	.	16ff\JJ	.	.	.	.	.	.	.
=96	=96	=96	=96	=96	=96	=96	=96	=96	=96	=96	=96	=96	=96	=96	=96	=96	=96	=96	=96
8E/L	.	8E\L	.	4e/	.	.	4cc\	.	.	16cc\LL	.	16ee\LL	.	4cc\	.	4ee\	.	2ryy	2ryy
.	.	.	.	.	.	.	.	.	.	16ee\	.	16gg\	.	.	.	.	.	.	.
8C/J	.	8C\J	.	.	.	.	.	.	.	16ff\	.	16aa\	.	.	.	.	.	.	.
.	.	.	.	.	.	.	.	.	.	16dd\JJ	.	16bb\JJ	.	.	.	.	.	.	.
8r	.	4r	.	4r	.	.	4r	.	.	16ee\LL	.	16ccc\LL	.	4r	.	4r	.	.	.
.	.	.	.	.	.	.	.	.	.	16ee\	.	16gg\	.	.	.	.	.	.	.
8C/	.	.	.	.	.	.	.	.	.	16dd\	.	16ff\	.	.	.	.	.	.	.
.	.	.	.	.	.	.	.	.	.	16cc\JJ	.	16ee\JJ	.	.	.	.	.	.	.
=97	=97	=97	=97	=97	=97	=97	=97	=97	=97	=97	=97	=97	=97	=97	=97	=97	=97	=97	=97
.	.	.	.	.	.	.	8qqcc/	.	.	.	.	.	.	.	.	.	.	.	.
!LO:TX:a:t=problem:mixed beam	!	!	!	!	!	!	!	!	!	!	!	!	!	!	!	!	!	!	!
8GG/L	.	4.G\	Ky-	4.d/	Ky-	do-	4.b\	Ky-	do-	16b\LL	.	16dd\LL	.	4.g/	.	4.dd\	.	2ryy	2ryy
.	.	.	.	.	.	.	.	.	.	16dd\	.	16ff\	.	.	.	.	.	.	.
8G\	.	.	.	.	.	.	.	.	.	16b\	.	16dd\	.	.	.	.	.	.	.
.	.	.	.	.	.	.	.	.	.	16dd\JJ	.	16ff\JJ	.	.	.	.	.	.	.
8F\	.	.	.	.	.	.	.	.	.	16b\LL	.	16dd\LL	.	.	.	.	.	.	.
.	.	.	.	.	.	.	.	.	.	16dd\	.	16ff\	.	.	.	.	.	.	.
8F\J	.	8F\	-rie	8d/	-rie	-na	8b\	-rie	-na	16b\	.	16dd\	.	8g/	.	8dd\	.	.	.
.	.	.	.	.	.	.	.	.	.	16dd\JJ	.	16ff\JJ	.	.	.	.	.	.	.
=98	=98	=98	=98	=98	=98	=98	=98	=98	=98	=98	=98	=98	=98	=98	=98	=98	=98	=98	=98
!	!	!	!	!LO:TX:a:t=problem:mixed beam	!	!	!	!	!	!	!	!	!	!	!	!	!	!	!
8E/L	.	4E\	.	8e/L	.	no-	8cc\L	.	no-	8cc\L	.	16ee\LL	.	4cc\	.	4ee\	.	2ryy	2ryy
.	.	.	.	.	.	.	.	.	.	.	.	16cc\	.	.	.	.	.	.	.
8C/J	.	.	.	8ee\J	e-	-biſ	8gg\J	.	.	8ee\J	.	16ee\	.	.	.	.	.	.	.
.	.	.	.	.	.	.	.	.	.	.	.	16gg\JJ	.	.	.	.	.	.	.
.	.	.	.	.	.	.	8qqff/	.	-bis	.	.	.	.	.	.	.	.	.	.
8C\L	.	8c\L	e-	8e/	.	da	8ee\L	.	.	8ee\L	.	8ccc\L	.	8r	.	8r	.	.	.
8F\J	.	8A\J	.	8f/	-lei-	pa-	16dd\L	e-	.	16ee\L	.	16gg\L	.	8e/	.	8cc\	.	.	.
.	.	.	.	.	.	.	16cc\JJ	-lei-	pa-	16dd\JJ	.	16ff\JJ	.	.	.	.	.	.	.
=99	=99	=99	=99	=99	=99	=99	=99	=99	=99	=99	=99	=99	=99	=99	=99	=99	=99	=99	=99
!	!	!	!	!	!	!	!	!	!	!	!	!	!	!	!	!LO:LB:g=original	!	!	!
4G\	.	4G\	-lei-	4e/	.	.	4cc\	.	.	8cc\L	.	16ee\LL	.	4e/	.	4cc\	.	2ryy	2ryy
.	.	.	.	.	.	.	.	.	.	.	.	16ccc\	.	.	.	.	.	.	.
.	.	.	.	.	.	.	.	.	.	16ee\L	.	16ccc\	.	.	.	.	.	.	.
.	.	.	.	.	.	.	.	.	.	16cc\JJ	.	16ccc\JJ	.	.	.	.	.	.	.
!	!	!	!	!	!	!	!	!	!	!	!	!	!	!	!	!LO:TX:a:t=v	!	!	!
4GG/	.	4GG/	.	4d/	.	.	4b\	.	.	16b\LL	.	16dd\LL	.	4g/	.	4dd\	.	.	.
.	.	.	.	.	.	.	.	.	.	16dd\	.	16bb\	.	.	.	.	.	.	.
.	.	.	.	.	.	.	.	.	.	16dd\	.	16bb\	.	.	.	.	.	.	.
.	.	.	.	.	.	.	.	.	.	16dd\JJ	.	16bb\JJ	.	.	.	.	.	.	.
=100	=100	=100	=100	=100	=100	=100	=100	=100	=100	=100	=100	=100	=100	=100	=100	=100	=100	=100	=100
!	!	!	!	!	!	!	!	!	!	!LO:TX:a:t=problem:mixed beam	!	!LO:TX:a:t=problem:mixed beam	!	!	!	!	!	!	!
8C/L	.	4C/	-son	4e/	-son	-cem	4cc\	-son	-cem	8ee\L	.	8ccc\L	.	4e/	.	4cc\	.	2ryy	2ryy
8GG/J	.	.	.	.	.	.	.	.	.	32e/LL	.	32g/LL	.	.	.	.	.	.	.
.	.	.	.	.	.	.	.	.	.	32d/	.	32f/	.	.	.	.	.	.	.
.	.	.	.	.	.	.	.	.	.	32c/	.	32e/	.	.	.	.	.	.	.
.	.	.	.	.	.	.	.	.	.	32B/JJJ	.	32d/JJJ	.	.	.	.	.	.	.
4CC/	.	4r	.	4r	.	.	4r	.	.	4c/	.	4c/	.	4r	.	4r	.	.	.
=101	=101	=101	=101	=101	=101	=101	=101	=101	=101	=101	=101	=101	=101	=101	=101	=101	=101	=101	=101
!	!	!	!	!	!	!	!	!	!	!	!	!LO:LB:g=original	!	!	!	!LO:TX:a:t=4	!	!	!
!	!	!LO:N:vis=0	!	!LO:N:vis=0	!	!	!	!	!	!LO:N:vis=0	!	!	!LO:DY:t=pi	!LO:N:vis=00	!	!LO:N:vis=00	!	!	!
8r	p	1r	.	1r	.	.	4.g\	Ky-	do-	1r	.	8r	p	0r	.	0r	.	2ryy	2ryy
!LO:TX:a:t=problem:mixed beam	!	!	!	!	!	!	!	!	!	!	!	!	!	!	!	!	!	!	!
8GG/L	.	.	.	.	.	.	.	.	.	.	.	8g/L	.	.	.	.	.	.	.
8G\	.	.	.	.	.	.	.	.	.	.	.	8g/	.	.	.	.	.	.	.
8GG/J	.	.	.	.	.	.	8g\	-rie	-na	.	.	8g/J	.	.	.	.	.	.	.
=102	=102	=102	=102	=102	=102	=102	=102	=102	=102	=102	=102	=102	=102	=102	=102	=102	=102	=102	=102
8r	.	.	.	.	.	.	2a\	.	no-	.	.	8r	.	.	.	.	.	2ryy	2ryy
8F#X\L	.	.	.	.	.	.	.	.	.	.	.	8a/L	.	.	.	.	.	.	.
8F#\	.	.	.	.	.	.	.	.	.	.	.	8a/	.	.	.	.	.	.	.
8F#\J	.	.	.	.	.	.	.	.	.	.	.	8a/J	.	.	.	.	.	.	.
=103	=103	=103	=103	=103	=103	=103	=103	=103	=103	=103	=103	=103	=103	=103	=103	=103	=103	=103	=103
!	!	!	!	!LO:LB:g=original	!	!	!	!	!	!	!	!	!	!	!	!	!	!	!
.	.	.	.	.	.	.	8qqcc/	.	.	.	.	.	.	.	.	.	.	.	.
!	!	!	!	!	!	!	!	!	!	!	!	!	!LO:DY:t=fo	!	!	!	!	!	!
8r	.	4.F\	Ky-	4.d/	Ky-	do-	4.b\	Ky-	.	16r	.	16r	f	.	.	.	.	2ryy	2ryy
.	.	.	.	.	.	.	.	.	.	16d/LL	.	16f/LL 16b	.	.	.	.	.	.	.
!	!LO:DY:t=fo	!	!	!	!	!	!	!	!	!	!	!	!	!	!	!	!	!	!
8Fn\L	f	.	.	.	.	.	.	.	.	16d/	.	16f/ 16b	.	.	.	.	.	.	.
.	.	.	.	.	.	.	.	.	.	16d/JJ	.	16f/JJ 16b	.	.	.	.	.	.	.
8F\	.	.	.	.	.	.	.	.	.	16d/LL	.	16f/LL 16b	.	.	.	.	.	.	.
.	.	.	.	.	.	.	.	.	.	16d/	.	16f/ 16b	.	.	.	.	.	.	.
8F\J	.	8F\	-rie	8d/	-rie	-na	8b\	-rie	-biſ	16d/	.	16f/ 16b	.	.	.	.	.	.	.
.	.	.	.	.	.	.	.	.	.	16d/JJ	.	16f/JJ 16b	.	.	.	.	.	.	.
=104	=104	=104	=104	=104	=104	=104	=104	=104	=104	=104	=104	=104	=104	=104	=104	=104	=104	=104	=104
!	!	!	!	!	!	!	!	!	!	!LO:LB:g=original	!	!	!	!	!	!	!	!	!
8r	.	4E\	.	4e/	.	.	4cc\	.	.	16r	.	16r	.	.	.	.	.	2ryy	2ryy
.	.	.	.	.	.	.	.	.	.	16e/LL	.	16cc\LL	.	.	.	.	.	.	.
8E\L	.	.	.	.	.	.	.	.	.	16e/	.	16cc\	.	.	.	.	.	.	.
.	.	.	.	.	.	.	.	.	.	16e/JJ	.	16cc\JJ	.	.	.	.	.	.	.
8E\	.	4r	.	4r	.	.	4r	.	.	16e/LL	.	16cc\LL	.	.	.	.	.	.	.
.	.	.	.	.	.	.	.	.	.	16e/	.	16cc\	.	.	.	.	.	.	.
8E\J	.	.	.	.	.	.	.	.	.	16e/	.	16cc\	.	.	.	.	.	.	.
.	.	.	.	.	.	.	.	.	.	16e/JJ	.	16cc\JJ	.	.	.	.	.	.	.
=105	=105	=105	=105	=105	=105	=105	=105	=105	=105	=105	=105	=105	=105	=105	=105	=105	=105	=105	=105
!LO:LB:g=original	!	!	!	!	!	!	!	!	!	!	!	!	!LO:DY:t=for	!	!	!	!	!	!
4G\	.	4G\	Ky-	4.dd\	Ky-	do-	4.ff\	Ky-	do-	16dd\LL	.	16ff\LL	f	4.g/	.	4.dd\	.	2ryy	2ryy
.	.	.	.	.	.	.	.	.	.	16ff\	.	16ddd\	.	.	.	.	.	.	.
.	.	.	.	.	.	.	.	.	.	16ff\	.	16ddd\	.	.	.	.	.	.	.
.	.	.	.	.	.	.	.	.	.	16dd\JJ	.	16ff\JJ	.	.	.	.	.	.	.
8A\L	.	8A\L	-ri-	.	.	.	.	.	.	16dd\LL	.	16ff\LL	.	.	.	.	.	.	.
.	.	.	.	.	.	.	.	.	.	16ff\	.	16ddd\	.	.	.	.	.	.	.
8B\J	.	8B\J	.	8dd\	-rie	-na	8ff\	-rie	-na	16ff\	.	16ddd\	.	8g/	.	8ff\	.	.	.
.	.	.	.	.	.	.	.	.	.	16dd\JJ	.	16ff\JJ	.	.	.	.	.	.	.
=106	=106	=106	=106	=106	=106	=106	=106	=106	=106	=106	=106	=106	=106	=106	=106	=106	=106	=106	=106
!	!	!LO:LB:g=original	!	!	!	!	!	!	!	!	!	!	!	!	!	!	!	!	!
8c\L	.	8c\L	-e	8cc\L	.	no-	8ee\L	.	no-	16cc\LL	.	16ee\LL	.	8cc\	.	8ee\	.	2ryy	2ryy
.	.	.	.	.	.	.	.	.	.	16ee\	.	16gg\	.	.	.	.	.	.	.
8G\	.	8G\J	.	8g\J	.	.	8dd\J	.	.	16ff\	.	16aa\	.	8r	.	8r	.	.	.
.	.	.	.	.	.	.	.	.	.	16dd\JJ	.	16bb\JJ	.	.	.	.	.	.	.
8E\	.	8E\L	e-	8e/L	.	-biſ	8cc\L	=	-biſ	16ee\LL	.	16ccc\LL	.	4r	.	4r	.	.	.
.	.	.	.	.	.	.	.	.	.	16ff\	.	16aa\	.	.	.	.	.	.	.
8F\J	.	8F\J	-lei-	8f/J	e-	.	8dd\J	.	.	16ee\	.	16gg\	.	.	.	.	.	.	.
.	.	.	.	.	.	.	.	.	.	16dd\JJ	.	16ff\JJ	.	.	.	.	.	.	.
=107	=107	=107	=107	=107	=107	=107	=107	=107	=107	=107	=107	=107	=107	=107	=107	=107	=107	=107	=107
4G\	.	4G\	.	4e/	-lei-	pa-	4cc\	-lei-	pa-	16cc\LL	.	8ee\L	.	4e/	.	4cc\	.	2ryy	2ryy
.	.	.	.	.	.	.	.	.	.	16ee\	.	.	.	.	.	.	.	.	.
.	.	.	.	.	.	.	.	.	.	16ee\	.	8ccc\	.	.	.	.	.	.	.
.	.	.	.	.	.	.	.	.	.	16ee\JJ	.	.	.	.	.	.	.	.	.
4GG/	.	4GG/	.	4d/	.	.	4b\	.	.	16b\LL	.	8dd\	.	4g/	.	4dd\	.	.	.
.	.	.	.	.	.	.	.	.	.	16dd\	.	.	.	.	.	.	.	.	.
.	.	.	.	.	.	.	.	.	.	16dd\	.	8bb\J	.	.	.	.	.	.	.
.	.	.	.	.	.	.	.	.	.	16dd\JJ	.	.	.	.	.	.	.	.	.
=108	=108	=108	=108	=108	=108	=108	=108	=108	=108	=108	=108	=108	=108	=108	=108	=108	=108	=108	=108
!	!	!	!	!	!	!	!	!	!	!	!	!	!	!LO:LB:g=original	!	!	!	!	!
8C/L	.	4C/	-son	4e/	-son	-cem	4cc\	-son	-cem	4ee\	.	4ccc\	.	4e/	.	4cc\	.	2ryy	2ryy
8GG/J	.	.	.	.	.	.	.	.	.	.	.	.	.	.	.	.	.	.	.
4CC/	.	4r	.	4r	.	.	4r	.	.	4r	.	4r	.	4r	.	4r	.	.	.
=109	=109	=109	=109	=109	=109	=109	=109	=109	=109	=109	=109	=109	=109	=109	=109	=109	=109	=109	=109
!	!	!	!	!	!	!	!LO:LB:g=original	!	!	!	!	!	!	!	!	!LO:TX:a:t=4	!	!	!
!	!	!LO:N:vis=0	!	!LO:N:vis=0	!	!	!	!	!	!LO:N:vis=0	!	!	!	!LO:N:vis=00	!	!LO:N:vis=00	!	!	!
8r	p	1r	.	1r	.	.	4.g\	Ky-	do-	1r	.	8r	.	0r	.	0r	.	2ryy	2ryy
!LO:TX:a:t=problem:mixed beam	!	!	!	!	!	!	!	!	!	!	!	!	!	!	!	!	!	!	!
8G\L	.	.	.	.	.	.	.	.	.	.	.	8g/L	p	.	.	.	.	.	.
8GG/	.	.	.	.	.	.	.	.	.	.	.	8g/	.	.	.	.	.	.	.
8G\J	.	.	.	.	.	.	8g\	-rie	-na	.	.	8g/J	.	.	.	.	.	.	.
=110	=110	=110	=110	=110	=110	=110	=110	=110	=110	=110	=110	=110	=110	=110	=110	=110	=110	=110	=110
8r	.	.	.	.	.	.	2a\	.	.	.	.	8r	.	.	.	.	.	2ryy	2ryy
8F#X\L	.	.	.	.	.	.	.	.	.	.	.	8a/L	.	.	.	.	.	.	.
8F#\	.	.	.	.	.	.	.	.	.	.	.	8a/	.	.	.	.	.	.	.
8F#\J	.	.	.	.	.	.	.	.	.	.	.	8a/J	.	.	.	.	.	.	.
=111	=111	=111	=111	=111	=111	=111	=111	=111	=111	=111	=111	=111	=111	=111	=111	=111	=111	=111	=111
!	!LO:DY:t=fo	!	!	!	!	!	!	!	!	!	!	!LO:LB:g=original	!LO:DY:t=fo	!	!	!	!	!	!
8r	f	4.F\	Ky-	4.d/	Ky-	do-	4.b\	Ky-	no-	16r	.	16r	f	.	.	.	.	2ryy	2ryy
.	.	.	.	.	.	.	.	.	.	16d/LL	f	16f/LL 16b	.	.	.	.	.	.	.
8Fn\L	.	.	.	.	.	.	.	.	.	16d/	.	16f/ 16b	.	.	.	.	.	.	.
.	.	.	.	.	.	.	.	.	.	16d/JJ	.	16f/JJ 16b	.	.	.	.	.	.	.
8F\	.	.	.	.	.	.	.	.	.	16d/LL	.	16f/LL 16b	.	.	.	.	.	.	.
.	.	.	.	.	.	.	.	.	.	16d/	.	16f/ 16b	.	.	.	.	.	.	.
8F\J	.	8F\	-ri-	8d/	-ri-	-na	8b\	-rie	-biſ	16d/	.	16f/ 16b	.	.	.	.	.	.	.
.	.	.	.	.	.	.	.	.	.	16d/JJ	.	16f/JJ 16b	.	.	.	.	.	.	.
=112	=112	=112	=112	=112	=112	=112	=112	=112	=112	=112	=112	=112	=112	=112	=112	=112	=112	=112	=112
8r	.	4E\	-e	4e/	-e	.	4cc\	.	.	16r	.	16r	.	.	.	.	.	2ryy	2ryy
.	.	.	.	.	.	.	.	.	.	16e/LL	.	16cc\LL	.	.	.	.	.	.	.
8E\L	.	.	.	.	.	.	.	.	.	16e/	.	16cc\	.	.	.	.	.	.	.
.	.	.	.	.	.	.	.	.	.	16e/JJ	.	16cc\JJ	.	.	.	.	.	.	.
8E\	.	4r	.	4r	.	.	4r	.	.	16e/LL	.	16cc\LL	.	.	.	.	.	.	.
.	.	.	.	.	.	.	.	.	.	16e/	.	16cc\	.	.	.	.	.	.	.
8E\J	.	.	.	.	.	.	.	.	.	16e/	.	16cc\	.	.	.	.	.	.	.
.	.	.	.	.	.	.	.	.	.	16e/JJ	.	16cc\JJ	.	.	.	.	.	.	.
=113	=113	=113	=113	=113	=113	=113	=113	=113	=113	=113	=113	=113	=113	=113	=113	=113	=113	=113	=113
!LO:TX:a:t=problem:mixed beam	!	!	!	!	!	!	!	!	!	!	!	!	!LO:DY:t=ff:	!	!	!	!	!	!
8GG/L	f	4G\	Ky-	4.dd\	Ky-	do-	4.ff\	Ky-	do-	16dd\LL	.	16ff\LL	ff	4.g/	.	4.ff\	.	2ryy	2ryy
.	.	.	.	.	.	.	.	.	.	16ff\	.	16ddd\	.	.	.	.	.	.	.
8G\	.	.	.	.	.	.	.	.	.	16ff\	.	16ddd\	.	.	.	.	.	.	.
.	.	.	.	.	.	.	.	.	.	16dd\JJ	.	16ff\JJ	.	.	.	.	.	.	.
8A\	.	8A\L	-ri-	.	.	.	.	.	.	16dd\LL	.	16ff\LL	.	.	.	.	.	.	.
.	.	.	.	.	.	.	.	.	.	16ff\	.	16ddd\	.	.	.	.	.	.	.
8B\J	.	8B\J	.	8dd\	-rie	-na	8ff\	-ri-	-na	16ff\	.	16ddd\	.	8dd\	.	8ff\	.	.	.
.	.	.	.	.	.	.	.	.	.	16dd\JJ	.	16ff\JJ	.	.	.	.	.	.	.
=114	=114	=114	=114	=114	=114	=114	=114	=114	=114	=114	=114	=114	=114	=114	=114	=114	=114	=114	=114
!	!	!LO:LB:g=original	!	!	!	!	!	!	!	!	!	!	!	!	!	!	!	!	!
8c\L	.	8c\L	-e	8cc\L	.	no-	8ee\L	-e	no-	16cc\LL	.	16ee\LL	.	8cc\	.	8ee\	.	2ryy	2ryy
.	.	.	.	.	.	.	.	.	.	16ee\	.	16gg\	.	.	.	.	.	.	.
8G\	.	8G\J	.	8g\J	.	.	8dd\J	.	.	16ff\	.	16aa\	.	8r	.	8r	.	.	.
.	.	.	.	.	.	.	.	.	.	16dd\JJ	.	16bb\JJ	.	.	.	.	.	.	.
8E\	.	8E\L	e-	8e/L	.	-biſ	8cc\L	=	-biſ	16ee\LL	.	16ccc\LL	.	4r	.	4r	.	.	.
.	.	.	.	.	.	.	.	.	.	16ff\	.	16aa\	.	.	.	.	.	.	.
8F\J	.	8F\J	-le-	8f/J	e-	.	8dd\J	.	.	16ee\	.	16gg\	.	.	.	.	.	.	.
.	.	.	.	.	.	.	.	.	.	16dd\JJ	.	16ff\JJ	.	.	.	.	.	.	.
=115	=115	=115	=115	=115	=115	=115	=115	=115	=115	=115	=115	=115	=115	=115	=115	=115	=115	=115	=115
4G\	.	4G\	-i-	4e/	-lei-	pa-	4cc\	-lei-	pa-	16cc\LL	.	8`ee\L	.	4e/	.	4cc\	.	2ryy	2ryy
.	.	.	.	.	.	.	.	.	.	16ee\	.	.	.	.	.	.	.	.	.
.	.	.	.	.	.	.	.	.	.	16ee\	.	8`ccc\	.	.	.	.	.	.	.
.	.	.	.	.	.	.	.	.	.	16ee\JJ	.	.	.	.	.	.	.	.	.
4GG/	.	4GG/	.	4d/	.	.	4b\	.	.	16b\LL	.	8`dd\	.	4g/	.	4dd\	.	.	.
.	.	.	.	.	.	.	.	.	.	16dd\	.	.	.	.	.	.	.	.	.
.	.	.	.	.	.	.	.	.	.	16dd\	.	8`bb\J	.	.	.	.	.	.	.
.	.	.	.	.	.	.	.	.	.	16dd\JJ	.	.	.	.	.	.	.	.	.
=116	=116	=116	=116	=116	=116	=116	=116	=116	=116	=116	=116	=116	=116	=116	=116	=116	=116	=116	=116
4CC/	.	4C/	-son	4e/	-son.	-cem.	4cc\	-son.	-cem.	4ee\	.	4ccc\	.	4e/	.	4cc\	.	2ryy	2ryy
4r	.	4r	.	4r	.	.	4r	.	.	4r	.	4r	.	4r	.	4r	.	.	.
==	==	==	==	==	==	==	==	==	==	==	==	==	==	==	==	==	==	==	==
*-	*-	*-	*-	*-	*-	*-	*-	*-	*-	*-	*-	*-	*-	*-	*-	*-	*-	*-	*-
!!!system-decoration: g1[g2][g3][g4][g5]
!!!RDF**kern: >= above
!!!RDF**kern: <= below
!!!ENC: Anna Matuszewska
!!!END: 2020-06-20
